;FLAVOR:Marlin
;TIME:15443
;Filament used: 9.13476m
;Layer height: 0.25
;MINX:44.541
;MINY:51.416
;MINZ:0.2
;MAXX:190.459
;MAXY:183.584
;MAXZ:11.2
;Generated with Cura_SteamEngine 4.8.0
M140 S60
M105
M190 S60
M104 S200
M105
M109 S200
M82 ;absolute extrusion mode
M201 X500.00 Y500.00 Z100.00 E5000.00 ;Setup machine max acceleration
M203 X500.00 Y500.00 Z10.00 E50.00 ;Setup machine max feedrate
M204 P500.00 R1000.00 T500.00 ;Setup Print/Retract/Travel acceleration
M205 X8.00 Y8.00 Z0.40 E5.00 ;Setup Jerk
M220 S100 ;Reset Feedrate
M221 S100 ;Reset Flowrate

G28 ;Home

G92 E0 ;Reset Extruder
G1 Z2.0 F3000 ;Move Z Axis up
G1 X10.1 Y20 Z0.28 F5000.0 ;Move to start position
G1 X10.1 Y200.0 Z0.28 F1500.0 E15 ;Draw the first line
G1 X10.4 Y200.0 Z0.28 F5000.0 ;Move to side a little
G1 X10.4 Y20 Z0.28 F1500.0 E30 ;Draw the second line
G92 E0 ;Reset Extruder
G1 Z2.0 F3000 ;Move Z Axis up

G92 E0
G92 E0
G1 F1500 E-6.5
;LAYER_COUNT:45
;LAYER:0
M107
G0 F6000 X48.577 Y54.351 Z0.2
;TYPE:SKIRT
G1 F1500 E0
G1 F1200 X49.611 Y53.557 E0.04336
G1 X49.844 Y53.399 E0.05272
G1 X50.642 Y52.906 E0.08392
G1 X51.479 Y52.483 E0.11511
G1 X52.475 Y52.089 E0.15074
G1 X52.572 Y52.056 E0.15415
G1 X53.472 Y51.792 E0.18534
G1 X54.139 Y51.649 E0.20803
G1 X54.38 Y51.605 E0.21618
G1 X55.309 Y51.476 E0.24737
G1 X56.199 Y51.427 E0.27702
G1 X57.055 Y51.416 E0.30549
G1 X177.943 Y51.416 E4.32624
G1 X178.823 Y51.428 E4.35552
G1 X179.759 Y51.483 E4.3867
G1 X180.809 Y51.641 E4.42202
G1 X181.104 Y51.7 E4.43202
G1 X182.015 Y51.923 E4.46322
G1 X182.904 Y52.222 E4.49441
G1 X183.764 Y52.597 E4.52562
G1 X184.454 Y52.964 E4.55161
G1 X184.537 Y53.012 E4.5548
G1 X185.234 Y53.451 E4.5822
G1 X185.417 Y53.576 E4.58957
G1 X186.169 Y54.137 E4.62077
G1 X186.869 Y54.761 E4.65196
G1 X187.514 Y55.442 E4.68316
G1 X188.324 Y56.495 E4.72735
G1 X188.483 Y56.73 E4.73678
G1 X188.975 Y57.528 E4.76797
G1 X189.397 Y58.366 E4.79917
G1 X189.753 Y59.255 E4.83102
G1 X189.787 Y59.352 E4.83444
G1 X190.059 Y60.25 E4.86565
G1 X190.234 Y61.051 E4.89292
G1 X190.277 Y61.291 E4.90103
G1 X190.402 Y62.22 E4.93221
G1 X190.448 Y63.074 E4.96065
G1 X190.459 Y63.93 E4.98912
G1 X190.458 Y171.239 E8.55824
G1 X190.447 Y171.948 E8.58182
G1 X190.392 Y172.884 E8.61301
G1 X190.247 Y173.868 E8.64609
G1 X190.192 Y174.152 E8.65571
G1 X189.975 Y175.065 E8.68692
G1 X189.681 Y175.955 E8.7181
G1 X189.311 Y176.817 E8.7493
G1 X189.018 Y177.386 E8.77058
G1 X188.966 Y177.48 E8.77415
G1 X188.423 Y178.361 E8.80858
G1 X188.3 Y178.541 E8.81583
G1 X187.738 Y179.292 E8.84702
G1 X187.115 Y179.993 E8.87822
G1 X186.434 Y180.638 E8.90941
G1 X185.466 Y181.389 E8.95016
G1 X185.295 Y181.507 E8.95707
G1 X184.501 Y182.006 E8.98826
G1 X183.769 Y182.388 E9.01573
G1 X183.607 Y182.465 E9.02169
G1 X182.744 Y182.831 E9.05287
G1 X181.852 Y183.122 E9.08408
G1 X180.845 Y183.354 E9.11845
G1 X180.602 Y183.398 E9.12666
G1 X179.673 Y183.526 E9.15785
G1 X178.8 Y183.573 E9.18693
G1 X177.945 Y183.584 E9.21537
G1 X119.679 Y183.583 E11.1533
G1 X118.832 Y183.571 E11.18148
G1 X116.172 Y183.571 E11.26995
G1 X115.168 Y183.584 E11.30335
G1 X56.886 Y183.583 E13.24181
G1 X56.177 Y183.572 E13.2654
G1 X55.241 Y183.517 E13.29658
G1 X54.191 Y183.359 E13.3319
G1 X53.896 Y183.3 E13.34191
G1 X52.985 Y183.077 E13.3731
G1 X52.096 Y182.778 E13.4043
G1 X51.236 Y182.403 E13.4355
G1 X50.546 Y182.036 E13.4615
G1 X50.463 Y181.988 E13.46468
G1 X49.766 Y181.549 E13.49208
G1 X49.583 Y181.424 E13.49945
G1 X48.831 Y180.863 E13.53066
G1 X48.131 Y180.239 E13.56185
G1 X47.486 Y179.558 E13.59304
G1 X46.664 Y178.486 E13.63797
G1 X46.501 Y178.244 E13.64768
G1 X46.01 Y177.445 E13.67887
G1 X45.59 Y176.606 E13.71008
G1 X45.11 Y175.334 E13.7553
G1 X45.078 Y175.23 E13.75891
G1 X44.769 Y173.959 E13.80242
G1 X44.728 Y173.733 E13.81006
G1 X44.6 Y172.803 E13.84128
G1 X44.552 Y171.926 E13.8705
G1 X44.541 Y171.07 E13.89897
G1 X44.542 Y63.762 E17.46805
G1 X44.553 Y63.052 E17.49166
G1 X44.608 Y62.115 E17.52288
G1 X44.767 Y61.058 E17.55843
G1 X44.826 Y60.764 E17.56841
G1 X45.05 Y59.853 E17.59961
G1 X45.35 Y58.964 E17.63082
G1 X45.725 Y58.105 E17.66199
G1 X46.089 Y57.421 E17.68776
G1 X46.137 Y57.338 E17.69095
G1 X46.583 Y56.63 E17.71878
G1 X46.709 Y56.446 E17.7262
G1 X47.271 Y55.695 E17.7574
G1 X47.896 Y54.996 E17.78858
G1 X48.577 Y54.351 E17.81978
G0 F6000 X48.878 Y54.62
G1 F1200 X49.836 Y53.888 E17.85988
G1 X50.069 Y53.73 E17.86924
G1 X50.853 Y53.247 E17.89987
G1 X51.675 Y52.833 E17.93048
G1 X52.604 Y52.468 E17.96368
G1 X52.701 Y52.435 E17.96709
G1 X53.585 Y52.176 E17.99773
G1 X54.211 Y52.042 E18.01902
G1 X54.452 Y51.998 E18.02717
G1 X55.364 Y51.873 E18.05778
G1 X56.204 Y51.827 E18.08577
G1 X57.055 Y51.816 E18.11407
G1 X177.943 Y51.816 E22.13482
G1 X178.816 Y51.828 E22.16386
G1 X179.735 Y51.883 E22.19448
G1 X180.731 Y52.033 E22.22798
G1 X181.026 Y52.092 E22.23799
G1 X181.92 Y52.311 E22.2686
G1 X182.792 Y52.608 E22.29924
G1 X183.634 Y52.979 E22.32985
G1 X184.254 Y53.31 E22.35322
G1 X184.337 Y53.358 E22.35641
G1 X185.009 Y53.781 E22.38282
G1 X185.192 Y53.906 E22.39019
G1 X185.929 Y54.458 E22.42082
G1 X186.615 Y55.072 E22.45144
G1 X187.246 Y55.742 E22.48205
G1 X187.992 Y56.719 E22.52293
G1 X188.151 Y56.954 E22.53237
G1 X188.634 Y57.738 E22.563
G1 X189.046 Y58.561 E22.59361
G1 X189.375 Y59.388 E22.62321
G1 X189.409 Y59.485 E22.62663
G1 X189.676 Y60.366 E22.65725
G1 X189.84 Y61.122 E22.68298
G1 X189.883 Y61.362 E22.69109
G1 X190.006 Y62.274 E22.7217
G1 X190.048 Y63.079 E22.74851
G1 X190.059 Y63.93 E22.77681
G1 X190.058 Y171.232 E26.34569
G1 X190.047 Y171.941 E26.36928
G1 X189.992 Y172.86 E26.3999
G1 X189.855 Y173.792 E26.43123
G1 X189.8 Y174.076 E26.44085
G1 X189.586 Y174.972 E26.47149
G1 X189.294 Y175.845 E26.50211
G1 X188.929 Y176.69 E26.53272
G1 X188.668 Y177.192 E26.55154
G1 X188.616 Y177.286 E26.55511
G1 X188.093 Y178.135 E26.58828
G1 X187.97 Y178.315 E26.59553
G1 X187.418 Y179.052 E26.62616
G1 X186.804 Y179.738 E26.65678
G1 X186.133 Y180.369 E26.68741
G1 X185.238 Y181.059 E26.725
G1 X185.067 Y181.177 E26.73191
G1 X184.288 Y181.667 E26.76252
G1 X183.597 Y182.027 E26.78843
G1 X183.435 Y182.104 E26.7944
G1 X182.588 Y182.462 E26.82498
G1 X181.712 Y182.746 E26.85561
G1 X180.774 Y182.96 E26.88761
G1 X180.531 Y183.004 E26.89583
G1 X179.618 Y183.129 E26.92648
G1 X178.794 Y183.173 E26.95392
G1 X177.945 Y183.184 E26.98216
G1 X119.685 Y183.183 E28.9199
G1 X118.838 Y183.171 E28.94807
G1 X116.166 Y183.171 E29.03694
G1 X115.168 Y183.184 E29.07014
G1 X56.893 Y183.183 E31.00837
G1 X56.184 Y183.172 E31.03196
G1 X55.265 Y183.117 E31.06258
G1 X54.269 Y182.967 E31.09608
G1 X53.974 Y182.908 E31.10609
G1 X53.08 Y182.689 E31.1367
G1 X52.208 Y182.392 E31.16734
G1 X51.366 Y182.021 E31.19794
G1 X50.746 Y181.69 E31.22132
G1 X50.663 Y181.642 E31.22451
G1 X49.991 Y181.219 E31.25092
G1 X49.808 Y181.094 E31.25829
G1 X49.071 Y180.542 E31.28891
G1 X48.385 Y179.928 E31.31953
G1 X47.754 Y179.258 E31.35015
G1 X46.995 Y178.263 E31.39177
G1 X46.832 Y178.021 E31.40147
G1 X46.352 Y177.235 E31.4321
G1 X45.941 Y176.412 E31.4627
G1 X45.493 Y175.216 E31.50518
G1 X45.461 Y175.112 E31.5088
G1 X45.162 Y173.887 E31.55074
G1 X45.121 Y173.661 E31.55838
G1 X44.996 Y172.749 E31.58899
G1 X44.952 Y171.921 E31.61657
G1 X44.941 Y171.07 E31.64488
G1 X44.942 Y63.768 E35.21376
G1 X44.953 Y63.058 E35.23738
G1 X45.007 Y62.139 E35.26799
G1 X45.159 Y61.136 E35.30174
G1 X45.218 Y60.842 E35.31171
G1 X45.438 Y59.948 E35.34233
G1 X45.735 Y59.077 E35.37294
G1 X46.107 Y58.235 E35.40355
G1 X46.435 Y57.621 E35.42671
G1 X46.483 Y57.538 E35.4299
G1 X46.913 Y56.856 E35.45671
G1 X47.039 Y56.672 E35.46413
G1 X47.592 Y55.936 E35.49475
G1 X48.206 Y55.25 E35.52537
G1 X48.878 Y54.62 E35.55601
G0 F6000 X49.178 Y54.89
G1 F1200 X50.06 Y54.219 E35.59287
G1 X50.293 Y54.061 E35.60223
G1 X51.063 Y53.588 E35.63229
G1 X51.871 Y53.184 E35.66233
G1 X52.733 Y52.847 E35.69312
G1 X52.83 Y52.814 E35.69652
G1 X53.697 Y52.561 E35.72656
G1 X54.283 Y52.436 E35.74649
G1 X54.524 Y52.392 E35.75464
G1 X55.419 Y52.269 E35.78469
G1 X56.21 Y52.227 E35.81103
G1 X57.055 Y52.216 E35.83914
G1 X177.943 Y52.216 E39.85989
G1 X178.81 Y52.228 E39.88873
G1 X179.712 Y52.282 E39.91879
G1 X180.652 Y52.425 E39.95041
G1 X180.947 Y52.484 E39.96042
G1 X181.824 Y52.7 E39.99046
G1 X182.679 Y52.993 E40.02052
G1 X183.504 Y53.36 E40.05055
G1 X184.053 Y53.656 E40.07129
G1 X184.136 Y53.704 E40.07448
G1 X184.783 Y54.111 E40.09991
G1 X184.966 Y54.236 E40.10728
G1 X185.689 Y54.778 E40.13733
G1 X186.36 Y55.382 E40.16736
G1 X186.976 Y56.043 E40.19741
G1 X187.661 Y56.943 E40.23503
G1 X187.82 Y57.178 E40.24447
G1 X188.292 Y57.948 E40.2745
G1 X188.695 Y58.756 E40.30454
G1 X188.998 Y59.52 E40.33187
G1 X189.032 Y59.617 E40.33529
G1 X189.293 Y60.482 E40.36534
G1 X189.446 Y61.192 E40.3895
G1 X189.489 Y61.432 E40.39761
G1 X189.609 Y62.327 E40.42764
G1 X189.648 Y63.085 E40.45289
G1 X189.659 Y63.93 E40.48099
G1 X189.658 Y171.226 E44.04967
G1 X189.647 Y171.935 E44.07326
G1 X189.593 Y172.837 E44.10331
G1 X189.462 Y173.716 E44.13287
G1 X189.407 Y174 E44.14249
G1 X189.196 Y174.878 E44.17253
G1 X188.909 Y175.735 E44.20259
G1 X188.546 Y176.562 E44.23263
G1 X188.318 Y176.998 E44.24899
G1 X188.266 Y177.092 E44.25256
G1 X187.763 Y177.91 E44.2845
G1 X187.64 Y178.09 E44.29175
G1 X187.098 Y178.812 E44.32178
G1 X186.494 Y179.484 E44.35183
G1 X185.833 Y180.099 E44.38186
G1 X185.011 Y180.73 E44.41633
G1 X184.84 Y180.848 E44.42324
G1 X184.075 Y181.328 E44.45328
G1 X183.426 Y181.665 E44.4776
G1 X183.264 Y181.742 E44.48356
G1 X182.432 Y182.094 E44.51361
G1 X181.572 Y182.37 E44.54365
G1 X180.702 Y182.567 E44.57332
G1 X180.459 Y182.611 E44.58153
G1 X179.564 Y182.732 E44.61157
G1 X178.788 Y182.773 E44.63742
G1 X177.945 Y182.784 E44.66546
G1 X119.691 Y182.783 E46.603
G1 X118.844 Y182.771 E46.63117
G1 X116.16 Y182.771 E46.72044
G1 X115.168 Y182.784 E46.75344
G1 X56.899 Y182.783 E48.69147
G1 X56.19 Y182.772 E48.71506
G1 X55.288 Y182.718 E48.74511
G1 X54.348 Y182.575 E48.77673
G1 X54.053 Y182.516 E48.78674
G1 X53.176 Y182.3 E48.81678
G1 X52.321 Y182.007 E48.84684
G1 X51.496 Y181.64 E48.87687
G1 X50.947 Y181.344 E48.89762
G1 X50.864 Y181.296 E48.90081
G1 X50.217 Y180.889 E48.92623
G1 X50.034 Y180.764 E48.9336
G1 X49.311 Y180.222 E48.96366
G1 X48.64 Y179.618 E48.99368
G1 X48.024 Y178.957 E49.02373
G1 X47.327 Y178.039 E49.06207
G1 X47.164 Y177.797 E49.07178
G1 X46.693 Y177.027 E49.1018
G1 X46.292 Y176.217 E49.13186
G1 X45.875 Y175.099 E49.17155
G1 X45.843 Y174.995 E49.17516
G1 X45.556 Y173.816 E49.21552
G1 X45.515 Y173.59 E49.22316
G1 X45.393 Y172.695 E49.25321
G1 X45.352 Y171.915 E49.27918
G1 X45.341 Y171.07 E49.30729
G1 X45.342 Y63.774 E52.87597
G1 X45.353 Y63.064 E52.89959
G1 X45.407 Y62.162 E52.92964
G1 X45.551 Y61.215 E52.9615
G1 X45.61 Y60.921 E52.97148
G1 X45.827 Y60.044 E53.00153
G1 X46.121 Y59.19 E53.03157
G1 X46.488 Y58.365 E53.0616
G1 X46.781 Y57.822 E53.08212
G1 X46.829 Y57.739 E53.08531
G1 X47.243 Y57.082 E53.11114
G1 X47.369 Y56.898 E53.11855
G1 X47.912 Y56.176 E53.1486
G1 X48.516 Y55.505 E53.17863
G1 X49.178 Y54.89 E53.20868
G1 F1500 E46.70868
;MESH:Module_AB_LED_Frame.stl(1)
G0 F6000 X73.367 Y65.966
G0 X70.522 Y66.02
G0 X70.522 Y73.268
G0 X89.426 Y73.319
G0 X106.761 Y81.257
G0 X106.834 Y77.398
G0 X114.08 Y77.397
G0 X114.152 Y84.642
G0 X120.847 Y87.708
G0 X120.921 Y77.398
G0 X128.168 Y77.397
G0 X128.24 Y91.093
G0 X135.184 Y94.273
G0 X135.261 Y105.133
G0 X161.087 Y106.187
G0 X168.608 Y109.578
G0 X167.155 Y110.181
G0 X170.766 Y113.52
;TYPE:WALL-INNER
G1 F1500 E53.20868
G1 F1200 X173.697 Y113.52 E53.30617
G1 X177.115 Y110.1 E53.46699
G1 X177.116 Y76.874 E54.57209
G1 X173.697 Y73.455 E54.73291
G1 X170.766 Y73.455 E54.83039
G1 X167.348 Y76.875 E54.99121
G1 X167.347 Y110.101 E56.09631
G1 X170.766 Y113.52 E56.25713
G0 F6000 X170.932 Y113.12
;TYPE:WALL-OUTER
G1 F1200 X173.531 Y113.12 E56.34358
G1 X176.715 Y109.934 E56.49339
G1 X176.716 Y77.04 E57.58745
G1 X173.531 Y73.855 E57.73726
G1 X170.932 Y73.855 E57.8237
G1 X167.748 Y77.041 E57.97352
G1 X167.747 Y109.935 E59.06757
G1 X170.932 Y113.12 E59.21739
G0 F6000 X170.764 Y113.526
G1 F1500 E52.71739
G0 F6000 X171.289 Y112.259
G0 X171.289 Y122.741
G0 X170.766 Y121.29
G0 X167.512 Y124.968
G0 X167.511 Y158.058
G0 X170.766 Y161.545
;TYPE:WALL-INNER
G1 F1500 E59.21739
G1 F1200 X173.697 Y161.545 E59.31487
G1 X177.115 Y158.125 E59.47569
G1 X177.116 Y124.899 E60.58079
G1 X173.697 Y121.48 E60.74161
G1 X170.766 Y121.48 E60.8391
G1 X167.348 Y124.9 E60.99992
G1 X167.347 Y158.126 E62.10502
G1 X170.766 Y161.545 E62.26584
G0 F6000 X170.932 Y161.145
;TYPE:WALL-OUTER
G1 F1200 X173.531 Y161.145 E62.35228
G1 X176.715 Y157.959 E62.50209
G1 X176.716 Y125.065 E63.59615
G1 X173.531 Y121.88 E63.74596
G1 X170.932 Y121.88 E63.83241
G1 X167.748 Y125.066 E63.98222
G1 X167.747 Y157.96 E65.07628
G1 X170.932 Y161.145 E65.22609
G0 F6000 X170.764 Y161.551
G1 F1500 E58.72609
G0 F6000 X167.155 Y158.206
G0 X168.608 Y157.603
G0 X160.349 Y153.308
G0 X160.103 Y154.795
G0 X136.183 Y154.554
;TYPE:WALL-INNER
G1 F1500 E65.22609
G1 F1200 X136.683 Y154.604 E65.24281
G1 X160.093 Y154.604 E66.02142
G1 X160.592 Y154.554 E66.0381
G1 X161.104 Y154.4 E66.05589
G1 X161.574 Y154.148 E66.07363
G1 X161.985 Y153.81 E66.09132
G1 X162.323 Y153.399 E66.10902
G1 X162.575 Y152.929 E66.12676
G1 X162.729 Y152.417 E66.14454
G1 X162.779 Y151.918 E66.16122
G1 X162.779 Y128.508 E66.93984
G1 X162.729 Y128.008 E66.95656
G1 X162.575 Y127.496 E66.97434
G1 X162.323 Y127.026 E66.99208
G1 X161.985 Y126.615 E67.00977
G1 X161.574 Y126.277 E67.02747
G1 X161.104 Y126.025 E67.04521
G1 X160.592 Y125.871 E67.06299
G1 X160.093 Y125.821 E67.07967
G1 X136.683 Y125.821 E67.85829
G1 X136.183 Y125.871 E67.87501
G1 X135.671 Y126.025 E67.89279
G1 X135.201 Y126.277 E67.91053
G1 X134.79 Y126.615 E67.92823
G1 X134.452 Y127.026 E67.94592
G1 X134.2 Y127.496 E67.96366
G1 X134.046 Y128.008 E67.98144
G1 X133.997 Y128.509 E67.99819
G1 X133.997 Y151.917 E68.77674
G1 X134.046 Y152.417 E68.79345
G1 X134.2 Y152.929 E68.81123
G1 X134.452 Y153.399 E68.82897
G1 X134.79 Y153.81 E68.84667
G1 X135.201 Y154.148 E68.86437
G1 X135.671 Y154.4 E68.88211
G1 X136.183 Y154.554 E68.89989
G0 F6000 X136.261 Y154.16
;TYPE:WALL-OUTER
G1 F1200 X136.703 Y154.204 E68.91466
G1 X160.073 Y154.204 E69.69195
G1 X160.514 Y154.16 E69.70669
G1 X160.95 Y154.029 E69.72183
G1 X161.35 Y153.814 E69.73694
G1 X161.701 Y153.526 E69.75204
G1 X161.989 Y153.175 E69.76714
G1 X162.204 Y152.775 E69.78224
G1 X162.335 Y152.339 E69.79739
G1 X162.379 Y151.898 E69.81213
G1 X162.379 Y128.528 E70.58942
G1 X162.335 Y128.086 E70.60419
G1 X162.204 Y127.65 E70.61933
G1 X161.989 Y127.25 E70.63444
G1 X161.701 Y126.899 E70.64954
G1 X161.35 Y126.611 E70.66464
G1 X160.95 Y126.396 E70.67974
G1 X160.514 Y126.265 E70.69488
G1 X160.073 Y126.221 E70.70962
G1 X136.703 Y126.221 E71.48691
G1 X136.261 Y126.265 E71.50169
G1 X135.825 Y126.396 E71.51683
G1 X135.425 Y126.611 E71.53193
G1 X135.074 Y126.899 E71.54703
G1 X134.786 Y127.25 E71.56214
G1 X134.571 Y127.65 E71.57724
G1 X134.44 Y128.086 E71.59238
G1 X134.397 Y128.528 E71.60715
G1 X134.397 Y151.898 E72.38444
G1 X134.44 Y152.339 E72.39918
G1 X134.571 Y152.775 E72.41432
G1 X134.786 Y153.175 E72.42942
G1 X135.074 Y153.526 E72.44453
G1 X135.425 Y153.814 E72.45963
G1 X135.825 Y154.029 E72.47473
G1 X136.261 Y154.16 E72.48987
G0 F6000 X136.176 Y154.591
G1 F1500 E65.98987
G0 F6000 X135.095 Y154.307
G0 X135.904 Y153.089
G0 X128.241 Y153.586
G0 X128.167 Y157.602
G0 X120.92 Y157.603
G0 X120.844 Y154.066
G0 X114.153 Y154.5
G0 X114.079 Y157.602
G0 X106.833 Y157.603
G0 X106.757 Y154.981
G0 X66.392 Y157.602
G0 X67.845 Y158.205
G0 X64.234 Y161.545
;TYPE:WALL-INNER
G1 F1500 E72.48987
G1 F1200 X67.653 Y158.125 E72.65072
G1 X67.654 Y124.899 E73.75582
G1 X64.234 Y121.48 E73.91666
G1 X61.303 Y121.48 E74.01415
G1 X57.885 Y124.9 E74.17496
G1 X57.884 Y158.126 E75.28007
G1 X61.303 Y161.545 E75.44089
G1 X64.234 Y161.545 E75.53837
G0 F6000 X64.068 Y161.145
;TYPE:WALL-OUTER
G1 F1200 X67.253 Y157.959 E75.68821
G1 X67.254 Y125.065 E76.78227
G1 X64.068 Y121.88 E76.9321
G1 X61.469 Y121.88 E77.01854
G1 X58.285 Y125.066 E77.16836
G1 X58.284 Y157.96 E78.26242
G1 X61.469 Y161.145 E78.41223
G1 X64.068 Y161.145 E78.49867
G0 F6000 X64.236 Y161.551
