;FLAVOR:Marlin
;TIME:5880
;Filament used: 7.5771m
;Layer height: 0.25
;MINX:44.02
;MINY:46.619
;MINZ:0.2
;MAXX:189.788
;MAXY:178.637
;MAXZ:5.2
;Generated with Cura_SteamEngine 4.8.0
M140 S60
M105
M190 S60
M104 S200
M105
M109 S200
M82 ;absolute extrusion mode
M201 X500.00 Y500.00 Z100.00 E5000.00 ;Setup machine max acceleration
M203 X500.00 Y500.00 Z10.00 E50.00 ;Setup machine max feedrate
M204 P500.00 R1000.00 T500.00 ;Setup Print/Retract/Travel acceleration
M205 X8.00 Y8.00 Z0.40 E5.00 ;Setup Jerk
M220 S100 ;Reset Feedrate
M221 S100 ;Reset Flowrate

G28 ;Home

G92 E0 ;Reset Extruder
G1 Z2.0 F3000 ;Move Z Axis up
G1 X10.1 Y20 Z0.28 F5000.0 ;Move to start position
G1 X10.1 Y200.0 Z0.28 F1500.0 E15 ;Draw the first line
G1 X10.4 Y200.0 Z0.28 F5000.0 ;Move to side a little
G1 X10.4 Y20 Z0.28 F1500.0 E30 ;Draw the second line
G92 E0 ;Reset Extruder
G1 Z2.0 F3000 ;Move Z Axis up

G92 E0
G92 E0
G1 F1500 E-6.5
;LAYER_COUNT:21
;LAYER:0
M107
G0 F6000 X47.395 Y50.2 Z0.2
;TYPE:SKIRT
G1 F1500 E0
G1 F1200 X48.374 Y49.319 E0.04381
G1 X48.625 Y49.119 E0.05448
G1 X49.383 Y48.566 E0.08569
G1 X50.185 Y48.08 E0.11688
G1 X51.025 Y47.664 E0.14805
G1 X52.046 Y47.272 E0.18443
G1 X52.116 Y47.249 E0.18688
G1 X52.713 Y47.071 E0.2076
G1 X52.949 Y47.008 E0.21572
G1 X53.865 Y46.805 E0.24693
G1 X54.794 Y46.681 E0.2781
G1 X55.589 Y46.638 E0.30458
G1 X56.733 Y46.619 E0.34264
G1 X177.247 Y46.619 E4.35095
G1 X178.125 Y46.631 E4.38015
G1 X179.061 Y46.686 E4.41134
G1 X179.805 Y46.787 E4.43631
G1 X180.051 Y46.829 E4.44461
G1 X180.968 Y47.026 E4.47581
G1 X181.865 Y47.301 E4.50701
G1 X182.953 Y47.752 E4.54619
G1 X183.049 Y47.798 E4.54973
G1 X183.725 Y48.151 E4.57509
G1 X183.903 Y48.252 E4.5819
G1 X184.698 Y48.749 E4.61308
G1 X185.448 Y49.312 E4.64427
G1 X186.147 Y49.937 E4.67546
G1 X187.002 Y50.871 E4.71758
G1 X187.2 Y51.114 E4.728
G1 X187.76 Y51.865 E4.75916
G1 X188.255 Y52.662 E4.79036
G1 X188.68 Y53.498 E4.82156
G1 X188.893 Y53.996 E4.83957
G1 X188.93 Y54.089 E4.8429
G1 X189.343 Y55.34 E4.88672
G1 X189.406 Y55.578 E4.89491
G1 X189.607 Y56.494 E4.9261
G1 X189.729 Y57.424 E4.95729
G1 X189.77 Y58.204 E4.98327
G1 X189.788 Y59.326 E5.0206
G1 X189.787 Y166.267 E8.57747
G1 X189.776 Y166.974 E8.60099
G1 X189.721 Y167.91 E8.63217
G1 X189.63 Y168.595 E8.65515
G1 X189.594 Y168.813 E8.6625
G1 X189.402 Y169.731 E8.6937
G1 X189.132 Y170.63 E8.72492
G1 X188.898 Y171.245 E8.7468
G1 X188.851 Y171.358 E8.75087
G1 X188.248 Y172.586 E8.79638
G1 X188.135 Y172.784 E8.80396
G1 X187.635 Y173.578 E8.83517
G1 X187.07 Y174.327 E8.86637
G1 X186.444 Y175.025 E8.89756
G1 X185.553 Y175.841 E8.93774
G1 X185.398 Y175.968 E8.94441
G1 X184.647 Y176.531 E8.97562
G1 X183.913 Y176.993 E9.00447
G1 X183.741 Y177.092 E9.01107
G1 X182.909 Y177.524 E9.04225
G1 X182.043 Y177.885 E9.07346
G1 X181.036 Y178.2 E9.10855
G1 X180.795 Y178.263 E9.11683
G1 X179.878 Y178.462 E9.14804
G1 X178.948 Y178.581 E9.17923
G1 X178.201 Y178.619 E9.20411
G1 X177.075 Y178.637 E9.24156
G1 X174.307 Y178.635 E9.33363
G1 X174.067 Y178.637 E9.34161
G1 X59.426 Y178.637 E13.15458
G1 X58.373 Y178.635 E13.18961
G1 X58.05 Y178.637 E13.20035
G1 X56.371 Y178.637 E13.25619
G1 X55.735 Y178.628 E13.27735
G1 X54.799 Y178.575 E13.30853
G1 X54.131 Y178.487 E13.33094
G1 X53.841 Y178.44 E13.34071
G1 X52.923 Y178.251 E13.37188
G1 X52.024 Y177.984 E13.40308
G1 X51.15 Y177.641 E13.4343
G1 X50.682 Y177.421 E13.4515
G1 X50.598 Y177.379 E13.45463
G1 X50.008 Y177.061 E13.47692
G1 X49.811 Y176.947 E13.48449
G1 X49.02 Y176.443 E13.51569
G1 X48.274 Y175.873 E13.54691
G1 X47.58 Y175.243 E13.57809
G1 X46.686 Y174.242 E13.62272
G1 X46.491 Y173.995 E13.63319
G1 X45.942 Y173.235 E13.66437
G1 X45.46 Y172.431 E13.69555
G1 X45.047 Y171.588 E13.72678
G1 X44.708 Y170.714 E13.75795
G1 X44.548 Y170.201 E13.77583
G1 X44.46 Y169.893 E13.78648
G1 X44.241 Y168.981 E13.81768
G1 X44.101 Y168.054 E13.84886
G1 X44.039 Y167.068 E13.88172
G1 X44.02 Y165.924 E13.91977
G1 X44.021 Y58.95 E17.47774
G1 X44.032 Y58.271 E17.50033
G1 X44.088 Y57.335 E17.53152
G1 X44.182 Y56.633 E17.55507
G1 X44.222 Y56.394 E17.56313
G1 X44.416 Y55.477 E17.59431
G1 X44.688 Y54.579 E17.62552
G1 X45.162 Y53.434 E17.66673
G1 X45.202 Y53.351 E17.6698
G1 X45.578 Y52.639 E17.69658
G1 X45.696 Y52.434 E17.70444
G1 X46.198 Y51.642 E17.73563
G1 X46.765 Y50.896 E17.7668
G1 X47.395 Y50.2 E17.79802
G0 F6000 X47.715 Y50.445
G1 F1200 X48.623 Y49.632 E17.83856
G1 X48.874 Y49.432 E17.84923
G1 X49.619 Y48.89 E17.87988
G1 X50.407 Y48.415 E17.91048
G1 X51.234 Y48.01 E17.94111
G1 X52.171 Y47.652 E17.97447
G1 X52.241 Y47.629 E17.97692
G1 X52.816 Y47.458 E17.99687
G1 X53.052 Y47.395 E18.00499
G1 X53.951 Y47.196 E18.03562
G1 X54.864 Y47.076 E18.06625
G1 X55.596 Y47.038 E18.09063
G1 X56.733 Y47.019 E18.12845
G1 X177.247 Y47.019 E22.13676
G1 X178.119 Y47.031 E22.16577
G1 X179.038 Y47.086 E22.19639
G1 X179.738 Y47.181 E22.21988
G1 X179.984 Y47.223 E22.22818
G1 X180.884 Y47.417 E22.2588
G1 X181.764 Y47.689 E22.28944
G1 X182.78 Y48.113 E22.32606
G1 X182.876 Y48.159 E22.3296
G1 X183.527 Y48.499 E22.35402
G1 X183.705 Y48.6 E22.36083
G1 X184.485 Y49.088 E22.39143
G1 X185.22 Y49.643 E22.42207
G1 X185.904 Y50.259 E22.45268
G1 X186.691 Y51.123 E22.49155
G1 X186.889 Y51.366 E22.50198
G1 X187.439 Y52.105 E22.53262
G1 X187.923 Y52.888 E22.56323
G1 X188.337 Y53.71 E22.59385
G1 X188.521 Y54.144 E22.60952
G1 X188.558 Y54.237 E22.61285
G1 X188.956 Y55.443 E22.65509
G1 X189.019 Y55.681 E22.66328
G1 X189.216 Y56.58 E22.69389
G1 X189.334 Y57.493 E22.72451
G1 X189.37 Y58.211 E22.74842
G1 X189.388 Y59.326 E22.78551
G1 X189.387 Y166.261 E26.34218
G1 X189.376 Y166.968 E26.3657
G1 X189.321 Y167.887 E26.39632
G1 X189.235 Y168.53 E26.4179
G1 X189.199 Y168.748 E26.42525
G1 X189.01 Y169.649 E26.45587
G1 X188.743 Y170.53 E26.48649
G1 X188.528 Y171.092 E26.5065
G1 X188.481 Y171.205 E26.51057
G1 X187.9 Y172.388 E26.55441
G1 X187.787 Y172.586 E26.56199
G1 X187.297 Y173.365 E26.5926
G1 X186.74 Y174.099 E26.62324
G1 X186.122 Y174.781 E26.65386
G1 X185.299 Y175.531 E26.69089
G1 X185.144 Y175.658 E26.69755
G1 X184.407 Y176.21 E26.72818
G1 X183.714 Y176.646 E26.75541
G1 X183.542 Y176.745 E26.76201
G1 X182.725 Y177.169 E26.79263
G1 X181.874 Y177.521 E26.82326
G1 X180.935 Y177.813 E26.85596
G1 X180.694 Y177.876 E26.86425
G1 X179.794 Y178.07 E26.89487
G1 X178.88 Y178.185 E26.92551
G1 X178.194 Y178.219 E26.94836
G1 X177.075 Y178.237 E26.98558
G1 X174.305 Y178.235 E27.07771
G1 X174.064 Y178.237 E27.08572
G1 X59.426 Y178.237 E30.8986
G1 X58.37 Y178.235 E30.93372
G1 X58.05 Y178.237 E30.94437
G1 X56.377 Y178.237 E31.00001
G1 X55.741 Y178.228 E31.02117
G1 X54.822 Y178.175 E31.05178
G1 X54.195 Y178.092 E31.07282
G1 X53.905 Y178.045 E31.08259
G1 X53.004 Y177.859 E31.11319
G1 X52.122 Y177.595 E31.14381
G1 X50.861 Y177.063 E31.18933
G1 X50.777 Y177.021 E31.19246
G1 X50.208 Y176.715 E31.21394
G1 X50.011 Y176.601 E31.22151
G1 X49.235 Y176.105 E31.25215
G1 X48.505 Y175.545 E31.28275
G1 X47.826 Y174.923 E31.31337
G1 X47 Y173.994 E31.35472
G1 X46.805 Y173.747 E31.36519
G1 X46.267 Y173.001 E31.39578
G1 X45.795 Y172.21 E31.42641
G1 X45.394 Y171.381 E31.45704
G1 X44.933 Y170.091 E31.50261
G1 X44.845 Y169.783 E31.51326
G1 X44.631 Y168.888 E31.54387
G1 X44.495 Y167.977 E31.5745
G1 X44.439 Y167.061 E31.60503
G1 X44.42 Y165.924 E31.64285
G1 X44.421 Y58.956 E35.20062
G1 X44.432 Y58.277 E35.2232
G1 X44.487 Y57.358 E35.25383
G1 X44.576 Y56.699 E35.27594
G1 X44.616 Y56.46 E35.284
G1 X44.808 Y55.56 E35.31461
G1 X45.076 Y54.679 E35.34524
G1 X45.522 Y53.608 E35.38383
G1 X45.562 Y53.525 E35.38689
G1 X45.924 Y52.839 E35.41269
G1 X46.042 Y52.634 E35.42056
G1 X46.536 Y51.857 E35.45118
G1 X47.095 Y51.125 E35.48181
G1 X47.715 Y50.445 E35.51242
G0 F6000 X48.035 Y50.691
G1 F1200 X48.873 Y49.945 E35.54974
G1 X49.124 Y49.745 E35.56041
G1 X49.854 Y49.214 E35.59043
G1 X50.629 Y48.75 E35.62048
G1 X51.441 Y48.356 E35.6505
G1 X52.296 Y48.032 E35.68091
G1 X52.366 Y48.009 E35.68336
G1 X52.919 Y47.844 E35.70255
G1 X53.155 Y47.781 E35.71068
G1 X54.037 Y47.587 E35.74071
G1 X54.933 Y47.472 E35.77076
G1 X55.603 Y47.438 E35.79307
G1 X56.733 Y47.419 E35.83066
G1 X177.247 Y47.419 E39.83897
G1 X178.113 Y47.431 E39.86778
G1 X179.014 Y47.485 E39.8978
G1 X179.671 Y47.575 E39.91985
G1 X179.917 Y47.617 E39.92816
G1 X180.799 Y47.809 E39.95818
G1 X181.661 Y48.077 E39.9882
G1 X182.608 Y48.473 E40.02234
G1 X182.704 Y48.519 E40.02588
G1 X183.33 Y48.847 E40.04939
G1 X183.508 Y48.948 E40.0562
G1 X184.273 Y49.428 E40.08623
G1 X184.992 Y49.973 E40.11624
G1 X185.661 Y50.581 E40.14631
G1 X186.381 Y51.376 E40.18198
G1 X186.579 Y51.619 E40.19241
G1 X187.118 Y52.344 E40.22246
G1 X187.591 Y53.113 E40.25248
G1 X188.149 Y54.291 E40.29584
G1 X188.186 Y54.384 E40.29917
G1 X188.569 Y55.545 E40.33983
G1 X188.632 Y55.783 E40.34802
G1 X188.825 Y56.665 E40.37805
G1 X188.938 Y57.561 E40.40808
G1 X188.971 Y58.218 E40.42996
G1 X188.987 Y59.151 E40.461
G1 X188.988 Y166.096 E44.018
G1 X188.976 Y166.962 E44.04681
G1 X188.922 Y167.863 E44.07683
G1 X188.841 Y168.465 E44.09703
G1 X188.805 Y168.683 E44.10438
G1 X188.618 Y169.567 E44.13444
G1 X188.354 Y170.43 E44.16445
G1 X188.159 Y170.938 E44.18255
G1 X188.112 Y171.051 E44.18662
G1 X187.553 Y172.19 E44.22882
G1 X187.44 Y172.388 E44.2364
G1 X186.958 Y173.152 E44.26645
G1 X186.41 Y173.87 E44.29649
G1 X185.801 Y174.537 E44.32653
G1 X185.046 Y175.222 E44.36044
G1 X184.891 Y175.349 E44.3671
G1 X184.167 Y175.89 E44.39716
G1 X183.514 Y176.299 E44.42279
G1 X183.342 Y176.398 E44.42939
G1 X182.54 Y176.814 E44.45944
G1 X181.705 Y177.157 E44.48946
G1 X180.834 Y177.426 E44.51978
G1 X180.593 Y177.489 E44.52807
G1 X179.71 Y177.679 E44.55811
G1 X178.813 Y177.79 E44.58817
G1 X178.187 Y177.82 E44.60902
G1 X177.249 Y177.836 E44.64022
G1 X175.327 Y177.837 E44.70415
G1 X174.302 Y177.835 E44.73824
G1 X174.06 Y177.837 E44.74629
G1 X59.427 Y177.837 E48.559
G1 X58.368 Y177.835 E48.59422
G1 X58.05 Y177.837 E48.60479
G1 X56.383 Y177.837 E48.66024
G1 X55.747 Y177.828 E48.68139
G1 X54.845 Y177.775 E48.71145
G1 X54.259 Y177.698 E48.73111
G1 X53.969 Y177.651 E48.74088
G1 X53.085 Y177.467 E48.77091
G1 X52.221 Y177.206 E48.80093
G1 X51.039 Y176.705 E48.84363
G1 X50.955 Y176.663 E48.84675
G1 X50.408 Y176.368 E48.86742
G1 X50.211 Y176.254 E48.87499
G1 X49.45 Y175.768 E48.90502
G1 X48.735 Y175.216 E48.93507
G1 X48.072 Y174.603 E48.9651
G1 X47.314 Y173.746 E49.00315
G1 X47.119 Y173.499 E49.01362
G1 X46.592 Y172.766 E49.04365
G1 X46.131 Y171.99 E49.07367
G1 X45.74 Y171.175 E49.10373
G1 X45.317 Y169.981 E49.14586
G1 X45.229 Y169.673 E49.15652
G1 X45.02 Y168.795 E49.18654
G1 X44.889 Y167.901 E49.21659
G1 X44.839 Y167.054 E49.24481
G1 X44.82 Y165.924 E49.2824
G1 X44.821 Y58.963 E52.83994
G1 X44.832 Y58.284 E52.86252
G1 X44.887 Y57.382 E52.89258
G1 X44.971 Y56.765 E52.91329
G1 X45.011 Y56.526 E52.92135
G1 X45.199 Y55.643 E52.95138
G1 X45.465 Y54.78 E52.98141
G1 X45.882 Y53.782 E53.01739
G1 X45.922 Y53.699 E53.02045
G1 X46.271 Y53.039 E53.04528
G1 X46.389 Y52.834 E53.05315
G1 X46.874 Y52.072 E53.08319
G1 X47.424 Y51.355 E53.11325
G1 X48.035 Y50.691 E53.14326
G1 F1500 E46.64326
;MESH:Module_AB_LED_Cover.stl
G0 F6000 X58.051 Y60.693
G0 X56.987 Y59.689
G0 X56.611 Y61.299
G0 X56.611 Y61.806
G0 X56.721 Y62.305
G0 X56.936 Y62.768
G0 X57.243 Y63.173
G0 X57.632 Y63.504
G0 X58.082 Y63.743
G0 X58.359 Y63.82
G0 X59.628 Y63.98
;TYPE:WALL-INNER
G1 F1500 E53.14326
G1 F1200 X60.13 Y63.78 E53.16123
G1 X60.292 Y63.673 E53.16769
G1 X60.586 Y63.471 E53.17955
G1 X60.956 Y63.081 E53.19743
G1 X61.059 Y62.916 E53.2039
G1 X61.242 Y62.609 E53.21579
G1 X61.413 Y62.097 E53.23375
G1 X61.437 Y61.905 E53.24018
G1 X61.472 Y61.555 E53.25188
G1 X61.454 Y61.365 E53.25823
G1 X61.415 Y61.015 E53.26994
G1 X61.356 Y60.832 E53.27634
G1 X61.242 Y60.498 E53.28807
G1 X61.144 Y60.331 E53.29451
G1 X60.96 Y60.031 E53.30622
G1 X60.831 Y59.891 E53.31255
G1 X60.584 Y59.632 E53.32445
G1 X60.133 Y59.327 E53.34256
G1 X59.628 Y59.126 E53.36064
G1 X59.091 Y59.037 E53.37875
G1 X58.546 Y59.068 E53.3969
G1 X58.024 Y59.213 E53.41492
G1 X57.542 Y59.467 E53.43304
G1 X57.126 Y59.821 E53.45121
G1 X56.799 Y60.252 E53.4692
G1 X56.716 Y60.425 E53.47559
G1 X56.567 Y60.75 E53.48748
G1 X56.45 Y61.282 E53.50559
G1 X56.45 Y61.824 E53.52362
G1 X56.568 Y62.358 E53.54181
G1 X56.797 Y62.852 E53.55992
G1 X57.126 Y63.284 E53.57798
G1 X57.541 Y63.638 E53.59612
G1 X58.022 Y63.893 E53.61423
G1 X58.547 Y64.039 E53.63236
G1 X59.09 Y64.068 E53.65044
G1 X59.628 Y63.98 E53.66857
G0 F6000 X59.52 Y63.592
;TYPE:WALL-OUTER
G1 F1200 X59.944 Y63.423 E53.68375
G1 X60.069 Y63.341 E53.68873
G1 X60.325 Y63.165 E53.69906
G1 X60.638 Y62.835 E53.71419
G1 X60.717 Y62.708 E53.71916
G1 X60.876 Y62.441 E53.7295
G1 X61.021 Y62.008 E53.74469
G1 X61.039 Y61.861 E53.74961
G1 X61.07 Y61.554 E53.75987
G1 X61.056 Y61.406 E53.76482
G1 X61.022 Y61.1 E53.77506
G1 X60.976 Y60.958 E53.78002
G1 X60.876 Y60.665 E53.79032
G1 X60.801 Y60.537 E53.79525
G1 X60.639 Y60.273 E53.80556
G1 X60.539 Y60.164 E53.81048
G1 X60.324 Y59.939 E53.82083
G1 X59.945 Y59.683 E53.83604
G1 X59.52 Y59.514 E53.85125
G1 X59.069 Y59.439 E53.86646
G1 X58.612 Y59.465 E53.88168
G1 X58.172 Y59.587 E53.89687
G1 X57.767 Y59.8 E53.91209
G1 X57.418 Y60.097 E53.92733
G1 X57.142 Y60.461 E53.94252
G1 X57.078 Y60.595 E53.94746
G1 X56.948 Y60.878 E53.95782
G1 X56.85 Y61.325 E53.97304
G1 X56.85 Y61.78 E53.98817
G1 X56.949 Y62.229 E54.00347
G1 X57.142 Y62.644 E54.01869
G1 X57.418 Y63.008 E54.03388
G1 X57.767 Y63.305 E54.04913
G1 X58.171 Y63.519 E54.06433
G1 X58.612 Y63.642 E54.07956
G1 X59.068 Y63.666 E54.09475
G1 X59.52 Y63.592 E54.10998
G0 F6000 X59.637 Y64.015
G1 F1500 E47.60998
G0 F6000 X60.219 Y63.95
G0 X59.591 Y62.62
G0 X173.789 Y62.199
G0 X172.533 Y62.951
G0 X173.922 Y63.893
;TYPE:WALL-INNER
G1 F1500 E54.10998
G1 F1200 X174.447 Y64.039 E54.1281
G1 X174.99 Y64.068 E54.14619
G1 X175.528 Y63.98 E54.16432
G1 X176.03 Y63.78 E54.1823
G1 X176.192 Y63.673 E54.18875
G1 X176.486 Y63.471 E54.20062
G1 X176.856 Y63.081 E54.2185
G1 X176.959 Y62.916 E54.22497
G1 X177.142 Y62.609 E54.23685
G1 X177.313 Y62.097 E54.25481
G1 X177.337 Y61.905 E54.26124
G1 X177.372 Y61.555 E54.27294
G1 X177.354 Y61.365 E54.27929
G1 X177.315 Y61.015 E54.291
G1 X177.256 Y60.832 E54.2974
G1 X177.142 Y60.498 E54.30914
G1 X177.044 Y60.331 E54.31558
G1 X176.86 Y60.031 E54.32728
G1 X176.731 Y59.891 E54.33361
G1 X176.484 Y59.632 E54.34552
G1 X176.033 Y59.327 E54.36363
G1 X175.528 Y59.126 E54.3817
G1 X174.991 Y59.037 E54.39981
G1 X174.446 Y59.068 E54.41796
G1 X173.924 Y59.213 E54.43598
G1 X173.442 Y59.467 E54.4541
G1 X173.026 Y59.821 E54.47227
G1 X172.699 Y60.252 E54.49027
G1 X172.616 Y60.425 E54.49665
G1 X172.467 Y60.75 E54.50854
G1 X172.35 Y61.282 E54.52666
G1 X172.35 Y61.824 E54.54468
G1 X172.468 Y62.358 E54.56287
G1 X172.697 Y62.852 E54.58098
G1 X173.026 Y63.284 E54.59904
G1 X173.441 Y63.638 E54.61719
G1 X173.922 Y63.893 E54.63529
G0 F6000 X174.071 Y63.519
;TYPE:WALL-OUTER
G1 F1200 X174.512 Y63.642 E54.65052
G1 X174.968 Y63.666 E54.66571
G1 X175.42 Y63.592 E54.68094
G1 X175.844 Y63.423 E54.69612
G1 X175.969 Y63.341 E54.7011
G1 X176.225 Y63.165 E54.71143
G1 X176.538 Y62.835 E54.72656
G1 X176.617 Y62.708 E54.73153
G1 X176.776 Y62.441 E54.74187
G1 X176.921 Y62.008 E54.75705
G1 X176.939 Y61.861 E54.76198
G1 X176.97 Y61.554 E54.77224
G1 X176.956 Y61.406 E54.77719
G1 X176.922 Y61.1 E54.78743
G1 X176.876 Y60.958 E54.79239
G1 X176.776 Y60.665 E54.80269
G1 X176.701 Y60.537 E54.80762
G1 X176.539 Y60.273 E54.81793
G1 X176.439 Y60.164 E54.82285
G1 X176.224 Y59.939 E54.8332
G1 X175.845 Y59.683 E54.84841
G1 X175.42 Y59.514 E54.86362
G1 X174.969 Y59.439 E54.87883
G1 X174.512 Y59.465 E54.89405
G1 X174.072 Y59.587 E54.90924
G1 X173.667 Y59.8 E54.92446
G1 X173.318 Y60.097 E54.9397
G1 X173.042 Y60.461 E54.95489
G1 X172.978 Y60.595 E54.95983
G1 X172.848 Y60.878 E54.97019
G1 X172.75 Y61.325 E54.98541
G1 X172.75 Y61.78 E55.00054
G1 X172.849 Y62.229 E55.01584
G1 X173.042 Y62.644 E55.03106
G1 X173.318 Y63.008 E55.04625
G1 X173.667 Y63.305 E55.06149
G1 X174.071 Y63.519 E55.0767
G0 F6000 X173.909 Y63.927
G1 F1500 E48.5767
G0 F6000 X174.416 Y64.228
G0 X174.653 Y62.784
G0 X162.04 Y150.698
G0 X163.304 Y149.96
G0 X162.64 Y149.262
