;FLAVOR:Marlin
;TIME:11980
;Filament used: 12.2906m
;Layer height: 0.25
;MINX:11.451
;MINY:51.491
;MINZ:0.2
;MAXX:223.548
;MAXY:183.509
;MAXZ:16.45
;Generated with Cura_SteamEngine 4.8.0
M140 S60
M105
M190 S60
M104 S200
M105
M109 S200
M82 ;absolute extrusion mode
M201 X500.00 Y500.00 Z100.00 E5000.00 ;Setup machine max acceleration
M203 X500.00 Y500.00 Z10.00 E50.00 ;Setup machine max feedrate
M204 P500.00 R1000.00 T500.00 ;Setup Print/Retract/Travel acceleration
M205 X8.00 Y8.00 Z0.40 E5.00 ;Setup Jerk
M220 S100 ;Reset Feedrate
M221 S100 ;Reset Flowrate

G28 ;Home

G92 E0 ;Reset Extruder
G1 Z2.0 F3000 ;Move Z Axis up
G1 X10.1 Y20 Z0.28 F5000.0 ;Move to start position
G1 X10.1 Y200.0 Z0.28 F1500.0 E15 ;Draw the first line
G1 X10.4 Y200.0 Z0.28 F5000.0 ;Move to side a little
G1 X10.4 Y20 Z0.28 F1500.0 E30 ;Draw the second line
G92 E0 ;Reset Extruder
G1 Z2.0 F3000 ;Move Z Axis up

G92 E0
G92 E0
G1 F1500 E-6.5
;LAYER_COUNT:66
;LAYER:0
M107
G0 F6000 X35.964 Y63.018 Z0.2
;TYPE:SKIRT
G1 F1500 E0
G1 F1200 X36.495 Y62.74 E0.01994
G1 X36.876 Y62.554 E0.03404
G1 X37.186 Y62.409 E0.04542
G1 X37.75 Y62.155 E0.06599
G1 X40.136 Y61.042 E0.15356
G1 X42.349 Y59.93 E0.23594
G1 X44.605 Y58.718 E0.32111
G1 X46.766 Y57.476 E0.40401
G1 X48.917 Y56.157 E0.48794
G1 X51.426 Y54.511 E0.58774
G1 X52.295 Y53.922 E0.62266
G1 X53.093 Y53.429 E0.65386
G1 X53.64 Y53.142 E0.6744
G1 X54.039 Y52.947 E0.68917
G1 X54.35 Y52.801 E0.7006
G1 X54.532 Y52.719 E0.70724
G1 X55.403 Y52.37 E0.73845
G1 X56.046 Y52.166 E0.76088
G1 X56.539 Y52.026 E0.77793
G1 X57 Y51.905 E0.79378
G1 X57.918 Y51.711 E0.82499
G1 X58.604 Y51.619 E0.84801
G1 X58.985 Y51.58 E0.86075
G1 X59.265 Y51.555 E0.8701
G1 X59.513 Y51.536 E0.87837
G1 X60.18 Y51.505 E0.90058
G1 X61.008 Y51.492 E0.92812
G1 X95.391 Y51.491 E2.0717
G1 X96.2 Y51.501 E2.09861
G1 X96.849 Y51.529 E2.12022
G1 X97.302 Y51.562 E2.13533
G1 X97.632 Y51.591 E2.14634
G1 X97.884 Y51.617 E2.15477
G1 X98.812 Y51.753 E2.18597
G1 X99.445 Y51.893 E2.20753
G1 X99.786 Y51.979 E2.21922
G1 X100.301 Y52.119 E2.23698
G1 X101.193 Y52.407 E2.26815
G1 X101.854 Y52.677 E2.2919
G1 X103.267 Y53.31 E2.3434
G1 X104.048 Y53.675 E2.37207
G1 X106.312 Y54.657 E2.45415
G1 X108.723 Y55.624 E2.54055
G1 X111.065 Y56.483 E2.62352
G1 X113.392 Y57.264 E2.70516
G1 X115.867 Y58.019 E2.79122
G1 X118.241 Y58.67 E2.8731
G1 X120.724 Y59.275 E2.9581
G1 X123.197 Y59.806 E3.04222
G1 X125.655 Y60.259 E3.12535
G1 X128.144 Y60.646 E3.20913
G1 X130.601 Y60.958 E3.29151
G1 X133.165 Y61.21 E3.3772
G1 X135.625 Y61.381 E3.45922
G1 X138.182 Y61.487 E3.54434
G1 X140.66 Y61.521 E3.62676
G1 X210.154 Y61.522 E5.93814
G1 X210.681 Y61.529 E5.95567
G1 X211.386 Y61.561 E5.97914
G1 X211.94 Y61.604 E5.99763
G1 X212.871 Y61.716 E6.02881
G1 X213.79 Y61.908 E6.06004
G1 X214.274 Y62.042 E6.07674
G1 X214.588 Y62.137 E6.08766
G1 X215.474 Y62.447 E6.11888
G1 X216.156 Y62.746 E6.14364
G1 X216.252 Y62.792 E6.14718
G1 X216.834 Y63.092 E6.16896
G1 X217.063 Y63.219 E6.17767
G1 X217.863 Y63.709 E6.20887
G1 X218.5 Y64.171 E6.23505
G1 X218.596 Y64.246 E6.2391
G1 X218.917 Y64.506 E6.25284
G1 X219.096 Y64.657 E6.26063
G1 X219.786 Y65.292 E6.29181
G1 X220.293 Y65.835 E6.31652
G1 X220.368 Y65.921 E6.32032
G1 X220.649 Y66.257 E6.33489
G1 X220.797 Y66.441 E6.34274
G1 X221.353 Y67.196 E6.37393
G1 X221.859 Y68.024 E6.4062
G1 X221.961 Y68.209 E6.41323
G1 X222.424 Y69.154 E6.44823
G1 X222.536 Y69.413 E6.45761
G1 X222.872 Y70.289 E6.48882
G1 X223.032 Y70.81 E6.50695
G1 X223.099 Y71.049 E6.5152
G1 X223.313 Y71.962 E6.54639
G1 X223.408 Y72.546 E6.56607
G1 X223.475 Y73.136 E6.58582
G1 X223.499 Y73.416 E6.59517
G1 X223.534 Y74.025 E6.61546
G1 X223.543 Y74.325 E6.62544
G1 X223.548 Y74.654 E6.63638
G1 X223.548 Y89.918 E7.14407
G1 X223.538 Y90.615 E7.16725
G1 X223.511 Y91.235 E7.18789
G1 X223.502 Y91.362 E7.19213
G1 X223.459 Y91.828 E7.20769
G1 X223.431 Y92.074 E7.21593
G1 X223.286 Y93 E7.2471
G1 X223.128 Y93.674 E7.27013
G1 X223.109 Y93.745 E7.27257
G1 X222.965 Y94.238 E7.28965
G1 X222.88 Y94.505 E7.29897
G1 X222.678 Y95.082 E7.3193
G1 X222.418 Y95.764 E7.34358
G1 X221.536 Y98.18 E7.42912
G1 X220.734 Y100.586 E7.51348
G1 X220.007 Y102.988 E7.59695
G1 X219.344 Y105.428 E7.68104
G1 X218.758 Y107.847 E7.76383
G1 X218.224 Y110.361 E7.84931
G1 X217.783 Y112.787 E7.93132
G1 X217.395 Y115.312 E8.01629
G1 X217.089 Y117.768 E8.09861
G1 X216.846 Y120.298 E8.18314
G1 X216.677 Y122.795 E8.26638
G1 X216.577 Y125.354 E8.35156
G1 X216.549 Y127.605 E8.42643
G1 X216.548 Y154.768 E9.32988
G1 X216.538 Y155.466 E9.3531
G1 X216.511 Y156.092 E9.37394
G1 X216.502 Y156.218 E9.37814
G1 X216.459 Y156.678 E9.39351
G1 X216.431 Y156.924 E9.40174
G1 X216.286 Y157.85 E9.43291
G1 X216.128 Y158.524 E9.45594
G1 X215.977 Y159.048 E9.47408
G1 X215.895 Y159.309 E9.48318
G1 X215.576 Y160.191 E9.51437
G1 X215.316 Y160.776 E9.53566
G1 X215.279 Y160.853 E9.53851
G1 X215.011 Y161.375 E9.55802
G1 X214.891 Y161.594 E9.56633
G1 X214.405 Y162.396 E9.59752
G1 X213.828 Y163.187 E9.63008
G1 X213.594 Y163.479 E9.64253
G1 X212.977 Y164.185 E9.67371
G1 X212.471 Y164.683 E9.69733
G1 X212.406 Y164.743 E9.70027
G1 X211.793 Y165.269 E9.72713
G1 X211.573 Y165.444 E9.73648
G1 X210.815 Y165.996 E9.76767
G1 X210.161 Y166.398 E9.7932
G1 X210.066 Y166.452 E9.79684
G1 X209.695 Y166.654 E9.81089
G1 X209.481 Y166.765 E9.81891
G1 X208.631 Y167.161 E9.8501
G1 X207.582 Y167.534 E9.88713
G1 X207.236 Y167.638 E9.89914
G1 X206.328 Y167.87 E9.93031
G1 X205.69 Y167.984 E9.95187
G1 X205.596 Y167.998 E9.95503
G1 X204.875 Y168.081 E9.97917
G1 X204.57 Y168.106 E9.98935
G1 X204.003 Y168.138 E10.00824
G1 X203.218 Y168.162 E10.03436
G1 X200.67 Y168.274 E10.11919
G1 X198.139 Y168.457 E10.20359
G1 X195.645 Y168.709 E10.28696
G1 X193.206 Y169.023 E10.36875
G1 X192.094 Y169.181 E10.40611
G1 X190.813 Y169.288 E10.44886
G1 X190.403 Y169.298 E10.4625
G1 X190.135 Y169.301 E10.47142
G1 X155.513 Y169.301 E11.62295
G1 X152.905 Y169.338 E11.7097
G1 X150.384 Y169.445 E11.79363
G1 X147.889 Y169.622 E11.87682
G1 X145.389 Y169.87 E11.96038
G1 X142.896 Y170.189 E12.04397
G1 X140.403 Y170.58 E12.1279
G1 X137.913 Y171.043 E12.21214
G1 X135.449 Y171.573 E12.29597
G1 X133.047 Y172.162 E12.37822
G1 X130.599 Y172.835 E12.46266
G1 X129.457 Y173.186 E12.5024
G1 X128.517 Y173.46 E12.53497
G1 X127.646 Y173.676 E12.56481
G1 X127.034 Y173.799 E12.58558
G1 X125.236 Y174.135 E12.64641
G1 X122.788 Y174.665 E12.72972
G1 X120.399 Y175.252 E12.81154
G1 X117.891 Y175.946 E12.89809
G1 X115.525 Y176.674 E12.98043
G1 X113.157 Y177.475 E13.06357
G1 X110.742 Y178.37 E13.14923
G1 X108.44 Y179.297 E13.23177
G1 X106.131 Y180.305 E13.31557
G1 X103.866 Y181.368 E13.39879
G1 X102.47 Y182.047 E13.45042
G1 X102.192 Y182.177 E13.46063
G1 X101.982 Y182.272 E13.46829
G1 X101.112 Y182.622 E13.49948
G1 X100.475 Y182.825 E13.52172
G1 X99.965 Y182.971 E13.53936
G1 X99.621 Y183.064 E13.55122
G1 X99.454 Y183.106 E13.55694
G1 X98.535 Y183.296 E13.58816
G1 X97.903 Y183.38 E13.60936
G1 X97.526 Y183.419 E13.62197
G1 X97.19 Y183.448 E13.63318
G1 X96.942 Y183.466 E13.64146
G1 X96.329 Y183.493 E13.66186
G1 X95.303 Y183.509 E13.69599
G1 X60.953 Y183.508 E14.83848
G1 X60.297 Y183.499 E14.8603
G1 X59.654 Y183.471 E14.88171
G1 X59.184 Y183.437 E14.89738
G1 X58.865 Y183.41 E14.90803
G1 X58.629 Y183.386 E14.91592
G1 X57.701 Y183.251 E14.94711
G1 X57.037 Y183.104 E14.96973
G1 X56.471 Y182.958 E14.98917
G1 X56.189 Y182.88 E14.9989
G1 X55.296 Y182.592 E15.03011
G1 X54.619 Y182.314 E15.05445
G1 X54.162 Y182.109 E15.07111
G1 X53.871 Y181.974 E15.08178
G1 X52.488 Y181.304 E15.13289
G1 X50.138 Y180.208 E15.21913
G1 X47.806 Y179.198 E15.30366
G1 X45.481 Y178.266 E15.38697
G1 X43.136 Y177.408 E15.47002
G1 X40.736 Y176.604 E15.55421
G1 X38.337 Y175.873 E15.63762
G1 X35.903 Y175.208 E15.72154
G1 X33.462 Y174.613 E15.80511
G1 X29.787 Y173.85 E15.92994
G1 X29.057 Y173.715 E15.95464
G1 X28.142 Y173.505 E15.98586
G1 X27.25 Y173.218 E16.01703
G1 X26.384 Y172.856 E16.04824
G1 X25.553 Y172.421 E16.07944
G1 X24.762 Y171.918 E16.11062
G1 X24.017 Y171.348 E16.14182
G1 X23.323 Y170.718 E16.17299
G1 X22.685 Y170.03 E16.2042
G1 X22.108 Y169.291 E16.23538
G1 X21.596 Y168.505 E16.26658
G1 X21.153 Y167.679 E16.29776
G1 X20.782 Y166.817 E16.32897
G1 X20.485 Y165.927 E16.36018
G1 X20.278 Y165.079 E16.38921
G1 X20.158 Y164.477 E16.40963
G1 X19.823 Y162.691 E16.47007
G1 X19.28 Y160.189 E16.55522
G1 X18.687 Y157.781 E16.6377
G1 X18.016 Y155.365 E16.7211
G1 X17.258 Y152.901 E16.80684
G1 X16.47 Y150.575 E16.88853
G1 X15.582 Y148.179 E16.97351
G1 X14.644 Y145.856 E17.05684
G1 X13.63 Y143.535 E17.14108
G1 X12.508 Y141.147 E17.22884
G1 X12.145 Y140.282 E17.26004
G1 X11.858 Y139.389 E17.29123
G1 X11.723 Y138.845 E17.30988
G1 X11.559 Y137.922 E17.34106
G1 X11.466 Y136.788 E17.3789
G1 X11.456 Y136.454 E17.39001
G1 X11.451 Y136.125 E17.40096
G1 X11.452 Y119.9 E17.9406
G1 X11.462 Y119.196 E17.96402
G1 X11.515 Y118.259 E17.99524
G1 X11.648 Y117.331 E18.02642
G1 X11.86 Y116.417 E18.05762
G1 X12.148 Y115.525 E18.0888
G1 X12.512 Y114.66 E18.12001
G1 X13.181 Y113.446 E18.16612
G1 X13.383 Y113.136 E18.17842
G1 X14.764 Y111.093 E18.26044
G1 X16.117 Y108.962 E18.3444
G1 X17.395 Y106.821 E18.42733
G1 X18.629 Y104.611 E18.51152
G1 X19.805 Y102.358 E18.59605
G1 X20.893 Y100.122 E18.67875
G1 X21.933 Y97.822 E18.76271
G1 X22.909 Y95.489 E18.84682
G1 X23.812 Y93.147 E18.9303
G1 X24.653 Y90.763 E19.01439
G1 X25.417 Y88.389 E19.09733
G1 X26.126 Y85.956 E19.18162
G1 X26.757 Y83.533 E19.2649
G1 X27.322 Y81.082 E19.34856
G1 X27.83 Y78.558 E19.43419
G1 X28.241 Y76.151 E19.5154
G1 X28.594 Y73.704 E19.59763
G1 X28.81 Y72.604 E19.63492
G1 X28.91 Y72.204 E19.64863
G1 X28.992 Y71.895 E19.65927
G1 X29.053 Y71.678 E19.66676
G1 X29.346 Y70.787 E19.69796
G1 X29.597 Y70.173 E19.72002
G1 X29.804 Y69.709 E19.73692
G1 X29.949 Y69.398 E19.74833
G1 X30.025 Y69.241 E19.75413
G1 X30.469 Y68.415 E19.78533
G1 X30.815 Y67.871 E19.80677
G1 X31.047 Y67.528 E19.82054
G1 X31.236 Y67.257 E19.83153
G1 X31.386 Y67.049 E19.84006
G1 X31.967 Y66.312 E19.87127
G1 X32.409 Y65.828 E19.89307
G1 X32.723 Y65.504 E19.90808
G1 X32.95 Y65.276 E19.91878
G1 X33.099 Y65.131 E19.9257
G1 X33.799 Y64.506 E19.95691
G1 X34.316 Y64.107 E19.97863
G1 X34.672 Y63.849 E19.99325
G1 X34.971 Y63.64 E20.00539
G1 X35.165 Y63.509 E20.01317
G1 X35.964 Y63.018 E20.04436
G0 F6000 X36.174 Y63.359
G1 F1200 X36.671 Y63.099 E20.06302
G1 X37.052 Y62.913 E20.07712
G1 X37.35 Y62.773 E20.08807
G1 X37.963 Y62.497 E20.11043
G1 X40.293 Y61.41 E20.19595
G1 X42.583 Y60.26 E20.28118
G1 X44.773 Y59.083 E20.36387
G1 X46.968 Y57.821 E20.44808
G1 X49.115 Y56.504 E20.53185
G1 X51.662 Y54.834 E20.63315
G1 X52.519 Y54.253 E20.66759
G1 X53.303 Y53.77 E20.69822
G1 X53.816 Y53.501 E20.71748
G1 X54.215 Y53.306 E20.73226
G1 X54.515 Y53.166 E20.74327
G1 X54.697 Y53.084 E20.74991
G1 X55.552 Y52.742 E20.78053
G1 X56.155 Y52.551 E20.80157
G1 X56.648 Y52.411 E20.81862
G1 X56.919 Y52.338 E20.82795
G1 X57.099 Y52.292 E20.83413
G1 X58.001 Y52.103 E20.86478
G1 X58.645 Y52.017 E20.88639
G1 X59.026 Y51.978 E20.89913
G1 X59.295 Y51.954 E20.90811
G1 X59.543 Y51.935 E20.91639
G1 X60.187 Y51.905 E20.93783
G1 X61.181 Y51.891 E20.97089
G1 X95.391 Y51.891 E22.10872
G1 X96.195 Y51.901 E22.13547
G1 X96.82 Y51.928 E22.15627
G1 X97.273 Y51.961 E22.17138
G1 X97.591 Y51.989 E22.182
G1 X97.843 Y52.015 E22.19042
G1 X98.754 Y52.149 E22.22105
G1 X99.347 Y52.281 E22.24125
G1 X99.688 Y52.367 E22.25295
G1 X99.923 Y52.429 E22.26104
G1 X100.194 Y52.504 E22.27039
G1 X101.07 Y52.788 E22.30102
G1 X101.691 Y53.042 E22.32333
G1 X102.931 Y53.596 E22.3685
G1 X103.884 Y54.04 E22.40347
G1 X106.184 Y55.037 E22.48685
G1 X108.562 Y55.991 E22.57207
G1 X110.916 Y56.855 E22.65547
G1 X113.296 Y57.653 E22.73896
G1 X115.718 Y58.392 E22.82318
G1 X118.178 Y59.067 E22.90803
G1 X120.617 Y59.661 E22.99152
G1 X123.106 Y60.196 E23.07619
G1 X125.593 Y60.654 E23.1603
G1 X128.069 Y61.039 E23.24364
G1 X130.617 Y61.363 E23.32907
G1 X133.099 Y61.606 E23.41202
G1 X135.616 Y61.782 E23.49594
G1 X138.159 Y61.887 E23.58059
G1 X140.654 Y61.921 E23.66358
G1 X210.149 Y61.922 E25.975
G1 X210.676 Y61.929 E25.99253
G1 X211.355 Y61.96 E26.01513
G1 X211.909 Y62.003 E26.03362
G1 X212.823 Y62.114 E26.06424
G1 X214.159 Y62.425 E26.10986
G1 X214.473 Y62.52 E26.12077
G1 X215.341 Y62.825 E26.15137
G1 X215.983 Y63.107 E26.1747
G1 X216.079 Y63.153 E26.17824
G1 X216.64 Y63.442 E26.19923
G1 X216.869 Y63.569 E26.20794
G1 X217.654 Y64.05 E26.23856
G1 X218.254 Y64.486 E26.26323
G1 X218.35 Y64.561 E26.26728
G1 X218.659 Y64.812 E26.28052
G1 X218.838 Y64.963 E26.28831
G1 X219.515 Y65.586 E26.31891
G1 X219.992 Y66.098 E26.34218
G1 X220.067 Y66.184 E26.34598
G1 X220.338 Y66.507 E26.36
G1 X220.486 Y66.691 E26.36785
G1 X221.031 Y67.433 E26.39847
G1 X221.509 Y68.217 E26.42902
G1 X221.611 Y68.402 E26.43604
G1 X222.057 Y69.313 E26.46978
G1 X222.169 Y69.572 E26.47916
G1 X222.498 Y70.432 E26.50979
G1 X222.647 Y70.918 E26.5267
G1 X222.714 Y71.157 E26.53495
G1 X222.923 Y72.053 E26.56555
G1 X223.012 Y72.602 E26.58405
G1 X223.076 Y73.17 E26.60306
G1 X223.1 Y73.45 E26.61241
G1 X223.134 Y74.037 E26.63197
G1 X223.143 Y74.337 E26.64195
G1 X223.148 Y74.654 E26.65249
G1 X223.148 Y89.912 E27.15998
G1 X223.138 Y90.609 E27.18316
G1 X223.112 Y91.206 E27.20304
G1 X223.103 Y91.333 E27.20727
G1 X223.062 Y91.783 E27.2223
G1 X223.034 Y92.029 E27.23053
G1 X222.89 Y92.938 E27.26114
G1 X222.742 Y93.57 E27.28273
G1 X222.723 Y93.641 E27.28518
G1 X222.584 Y94.117 E27.30167
G1 X222.499 Y94.384 E27.31099
G1 X222.304 Y94.94 E27.33059
G1 X222.056 Y95.592 E27.35379
G1 X221.157 Y98.052 E27.4409
G1 X220.348 Y100.48 E27.52602
G1 X219.624 Y102.872 E27.60914
G1 X218.964 Y105.301 E27.69286
G1 X218.365 Y107.776 E27.77756
G1 X217.833 Y110.278 E27.86264
G1 X217.381 Y112.76 E27.94654
G1 X217.001 Y115.237 E28.02989
G1 X216.693 Y117.713 E28.11288
G1 X216.447 Y120.269 E28.19829
G1 X216.277 Y122.788 E28.28226
G1 X216.177 Y125.333 E28.36697
G1 X216.149 Y127.6 E28.44238
G1 X216.148 Y154.762 E29.34579
G1 X216.138 Y155.46 E29.36901
G1 X216.112 Y156.063 E29.38908
G1 X216.103 Y156.189 E29.39328
G1 X216.062 Y156.633 E29.40811
G1 X216.034 Y156.879 E29.41635
G1 X215.89 Y157.788 E29.44696
G1 X215.742 Y158.42 E29.46855
G1 X215.596 Y158.928 E29.48613
G1 X215.514 Y159.189 E29.49523
G1 X215.2 Y160.055 E29.52587
G1 X214.955 Y160.603 E29.54583
G1 X214.918 Y160.68 E29.54867
G1 X214.66 Y161.183 E29.56747
G1 X214.54 Y161.402 E29.57578
G1 X214.063 Y162.189 E29.60639
G1 X213.516 Y162.937 E29.63721
G1 X213.282 Y163.229 E29.64966
G1 X212.675 Y163.921 E29.68027
G1 X212.2 Y164.389 E29.70245
G1 X212.135 Y164.449 E29.70539
G1 X211.544 Y164.956 E29.73129
G1 X211.324 Y165.131 E29.74064
G1 X210.579 Y165.672 E29.77126
G1 X209.963 Y166.05 E29.7953
G1 X209.868 Y166.104 E29.79894
G1 X209.511 Y166.299 E29.81247
G1 X209.297 Y166.41 E29.82048
G1 X208.462 Y166.798 E29.85111
G1 X207.467 Y167.151 E29.88622
G1 X207.121 Y167.255 E29.89824
G1 X206.229 Y167.482 E29.92885
G1 X205.631 Y167.588 E29.94905
G1 X205.537 Y167.602 E29.95221
G1 X204.842 Y167.683 E29.97549
G1 X204.537 Y167.708 E29.98566
G1 X203.991 Y167.738 E30.00385
G1 X203.263 Y167.76 E30.02808
G1 X200.623 Y167.876 E30.11597
G1 X198.106 Y168.059 E30.1999
G1 X195.59 Y168.313 E30.28401
G1 X193.176 Y168.623 E30.36496
G1 X192.038 Y168.785 E30.40319
G1 X190.803 Y168.888 E30.44441
G1 X190.393 Y168.898 E30.45805
G1 X190.135 Y168.901 E30.46663
G1 X155.507 Y168.901 E31.61837
G1 X152.882 Y168.938 E31.70568
G1 X150.374 Y169.045 E31.78918
G1 X147.854 Y169.223 E31.8732
G1 X145.339 Y169.472 E31.95726
G1 X142.85 Y169.791 E32.04072
G1 X140.298 Y170.192 E32.12664
G1 X137.867 Y170.644 E32.20888
G1 X135.375 Y171.18 E32.29366
G1 X132.918 Y171.782 E32.3778
G1 X130.481 Y172.453 E32.46187
G1 X129.189 Y172.848 E32.50681
G1 X128.405 Y173.076 E32.53396
G1 X127.566 Y173.284 E32.56271
G1 X126.96 Y173.406 E32.58327
G1 X125.182 Y173.738 E32.64343
G1 X122.687 Y174.279 E32.72834
G1 X120.262 Y174.875 E32.8114
G1 X117.814 Y175.552 E32.89588
G1 X115.384 Y176.299 E32.98043
G1 X112.995 Y177.108 E33.06432
G1 X110.633 Y177.982 E33.14809
G1 X108.297 Y178.923 E33.23185
G1 X105.95 Y179.948 E33.31703
G1 X103.671 Y181.018 E33.40077
