;FLAVOR:Marlin
;TIME:13007
;Filament used: 14.0466m
;Layer height: 0.25
;MINX:32.616
;MINY:50.516
;MINZ:0.2
;MAXX:202.384
;MAXY:184.484
;MAXZ:18.45
;Generated with Cura_SteamEngine 4.8.0
M140 S60
M105
M190 S60
M104 S200
M105
M109 S200
M82 ;absolute extrusion mode
M201 X500.00 Y500.00 Z100.00 E5000.00 ;Setup machine max acceleration
M203 X500.00 Y500.00 Z10.00 E50.00 ;Setup machine max feedrate
M204 P500.00 R1000.00 T500.00 ;Setup Print/Retract/Travel acceleration
M205 X8.00 Y8.00 Z0.40 E5.00 ;Setup Jerk
M220 S100 ;Reset Feedrate
M221 S100 ;Reset Flowrate

G28 ;Home

G92 E0 ;Reset Extruder
G1 Z2.0 F3000 ;Move Z Axis up
G1 X10.1 Y20 Z0.28 F5000.0 ;Move to start position
G1 X10.1 Y200.0 Z0.28 F1500.0 E15 ;Draw the first line
G1 X10.4 Y200.0 Z0.28 F5000.0 ;Move to side a little
G1 X10.4 Y20 Z0.28 F1500.0 E30 ;Draw the second line
G92 E0 ;Reset Extruder
G1 Z2.0 F3000 ;Move Z Axis up

G92 E0
G92 E0
G1 F1500 E-6.5
;LAYER_COUNT:74
;LAYER:0
M107
G0 F6000 X38.324 Y52.673 Z0.2
;TYPE:SKIRT
G1 F1500 E0
G1 F1200 X39.093 Y52.206 E0.02992
G1 X39.272 Y52.107 E0.03673
G1 X40.112 Y51.688 E0.06795
G1 X40.336 Y51.588 E0.07611
G1 X41.208 Y51.243 E0.1073
G1 X41.716 Y51.08 E0.12504
G1 X41.937 Y51.015 E0.1327
G1 X42.847 Y50.789 E0.16389
G1 X43.778 Y50.641 E0.19524
G1 X44.124 Y50.601 E0.20683
G1 X45.05 Y50.533 E0.23771
G1 X45.442 Y50.521 E0.25076
G1 X45.779 Y50.516 E0.26197
G1 X62.287 Y50.516 E0.81102
G1 X64.265 Y50.543 E0.87682
G1 X67.557 Y50.531 E0.98631
G1 X68.195 Y50.518 E1.00754
G1 X68.426 Y50.516 E1.01522
G1 X189.115 Y50.517 E5.02935
G1 X189.637 Y50.524 E5.04671
G1 X190.341 Y50.556 E5.07015
G1 X190.882 Y50.598 E5.0882
G1 X191.814 Y50.71 E5.11942
G1 X192.732 Y50.902 E5.15062
G1 X193.214 Y51.036 E5.16726
G1 X193.429 Y51.101 E5.17473
G1 X193.838 Y51.233 E5.18902
G1 X194.713 Y51.571 E5.22022
G1 X195.324 Y51.86 E5.2427
G1 X195.539 Y51.97 E5.25073
G1 X196.355 Y52.433 E5.28194
G1 X196.814 Y52.736 E5.30023
G1 X197.028 Y52.885 E5.3089
G1 X197.775 Y53.453 E5.34012
G1 X198.151 Y53.781 E5.35671
G1 X198.331 Y53.945 E5.36481
G1 X198.997 Y54.605 E5.396
G1 X199.528 Y55.224 E5.42312
G1 X199.696 Y55.435 E5.43209
G1 X200.249 Y56.193 E5.4633
G1 X200.602 Y56.76 E5.48551
G1 X200.645 Y56.834 E5.48836
G1 X200.908 Y57.315 E5.50659
G1 X201.019 Y57.53 E5.51464
G1 X201.414 Y58.381 E5.54585
G1 X201.719 Y59.215 E5.57538
G1 X201.788 Y59.43 E5.58289
G1 X202.036 Y60.334 E5.61407
G1 X202.17 Y61.015 E5.63715
G1 X202.214 Y61.284 E5.64622
G1 X202.326 Y62.216 E5.67744
G1 X202.355 Y62.824 E5.69769
G1 X202.381 Y64.037 E5.73804
G1 X202.384 Y64.273 E5.74589
G1 X202.383 Y171.185 E9.3018
G1 X202.376 Y171.731 E9.31996
G1 X202.344 Y172.441 E9.3436
G1 X202.302 Y172.982 E9.36165
G1 X202.19 Y173.914 E9.39287
G1 X201.891 Y175.223 E9.43753
G1 X201.833 Y175.421 E9.44439
G1 X201.65 Y175.99 E9.46427
G1 X201.62 Y176.075 E9.46727
G1 X201.27 Y176.945 E9.49846
G1 X201.04 Y177.424 E9.51613
G1 X200.93 Y177.639 E9.52416
G1 X200.467 Y178.455 E9.55537
G1 X200.13 Y178.963 E9.57564
G1 X199.968 Y179.193 E9.585
G1 X199.396 Y179.936 E9.61619
G1 X199.067 Y180.31 E9.63275
G1 X198.916 Y180.474 E9.64017
G1 X198.252 Y181.136 E9.67135
G1 X197.691 Y181.617 E9.69593
G1 X197.482 Y181.784 E9.70483
G1 X196.725 Y182.337 E9.73601
G1 X196.15 Y182.696 E9.75856
G1 X196.071 Y182.742 E9.7616
G1 X195.546 Y183.029 E9.7815
G1 X195.331 Y183.139 E9.78953
G1 X194.479 Y183.53 E9.82071
G1 X193.681 Y183.82 E9.84895
G1 X193.469 Y183.888 E9.85636
G1 X192.564 Y184.136 E9.88757
G1 X191.872 Y184.272 E9.91102
G1 X191.601 Y184.316 E9.92015
G1 X190.67 Y184.427 E9.95134
G1 X190.071 Y184.456 E9.97128
G1 X188.842 Y184.482 E10.01217
G1 X188.609 Y184.484 E10.01992
G1 X67.899 Y184.483 E14.03475
G1 X66.518 Y184.464 E14.08069
G1 X63.758 Y184.483 E14.17249
G1 X63.599 Y184.477 E14.17778
G1 X62.707 Y184.484 E14.20745
G1 X45.964 Y184.483 E14.76432
G1 X45.266 Y184.473 E14.78754
G1 X44.617 Y184.444 E14.80915
G1 X44.481 Y184.434 E14.81368
G1 X44.068 Y184.396 E14.82748
G1 X43.844 Y184.371 E14.83497
G1 X42.917 Y184.227 E14.86618
G1 X41.84 Y183.956 E14.90311
G1 X41.517 Y183.857 E14.91435
G1 X40.633 Y183.544 E14.94554
G1 X40.067 Y183.298 E14.96607
G1 X39.969 Y183.252 E14.96967
G1 X39.379 Y182.953 E14.99167
G1 X39.19 Y182.85 E14.99883
G1 X38.387 Y182.366 E15.03001
G1 X37.603 Y181.797 E15.06223
G1 X37.299 Y181.555 E15.07515
G1 X36.591 Y180.94 E15.10635
G1 X35.942 Y180.273 E15.1373
G1 X35.884 Y180.208 E15.1402
G1 X35.486 Y179.735 E15.16076
G1 X35.326 Y179.534 E15.1693
G1 X34.773 Y178.776 E15.20051
G1 X34.302 Y178 E15.2307
G1 X34.196 Y177.808 E15.238
G1 X33.76 Y176.928 E15.27066
G1 X33.667 Y176.717 E15.27833
G1 X33.326 Y175.843 E15.30953
G1 X33.18 Y175.384 E15.32555
G1 X33.115 Y175.163 E15.33321
G1 X32.889 Y174.253 E15.3644
G1 X32.737 Y173.29 E15.39683
G1 X32.695 Y172.917 E15.40931
G1 X32.63 Y171.987 E15.44032
G1 X32.62 Y171.622 E15.45246
G1 X32.616 Y171.321 E15.46248
G1 X32.617 Y63.829 E19.03767
G1 X32.627 Y63.16 E19.05993
G1 X32.656 Y62.517 E19.08134
G1 X32.666 Y62.381 E19.08587
G1 X32.7 Y62.006 E19.09839
G1 X32.724 Y61.784 E19.10582
G1 X32.864 Y60.856 E19.13704
G1 X33.142 Y59.744 E19.17516
G1 X33.244 Y59.411 E19.18674
G1 X33.557 Y58.527 E19.21793
G1 X33.88 Y57.802 E19.24433
G1 X33.924 Y57.712 E19.24766
G1 X34.139 Y57.294 E19.2633
G1 X34.24 Y57.108 E19.27034
G1 X34.723 Y56.303 E19.30156
G1 X35.296 Y55.513 E19.33402
G1 X35.54 Y55.206 E19.34706
G1 X36.154 Y54.497 E19.37826
G1 X36.827 Y53.842 E19.40949
G1 X36.892 Y53.784 E19.41239
G1 X37.365 Y53.386 E19.43295
G1 X37.566 Y53.226 E19.4415
G1 X38.324 Y52.673 E19.4727
G0 F6000 X38.56 Y52.997
G1 F1200 X39.287 Y52.556 E19.50099
G1 X39.466 Y52.457 E19.50779
G1 X40.275 Y52.054 E19.53785
G1 X40.499 Y51.954 E19.54601
G1 X41.355 Y51.615 E19.57663
G1 X41.829 Y51.464 E19.59318
G1 X42.05 Y51.399 E19.60084
G1 X42.944 Y51.178 E19.63147
G1 X43.824 Y51.038 E19.66111
G1 X44.17 Y50.998 E19.67269
G1 X45.063 Y50.933 E19.70247
G1 X45.455 Y50.921 E19.71551
G1 X45.779 Y50.916 E19.72629
G1 X62.287 Y50.916 E20.27535
G1 X64.261 Y50.943 E20.34101
G1 X67.566 Y50.931 E20.45094
G1 X68.203 Y50.918 E20.47213
G1 X68.426 Y50.916 E20.47955
G1 X189.11 Y50.917 E24.49351
G1 X189.632 Y50.924 E24.51088
G1 X190.31 Y50.955 E24.53345
G1 X190.851 Y50.997 E24.5515
G1 X191.765 Y51.108 E24.58212
G1 X193.099 Y51.419 E24.62768
G1 X193.314 Y51.484 E24.63515
G1 X193.71 Y51.612 E24.64899
G1 X194.569 Y51.944 E24.67962
G1 X195.142 Y52.216 E24.70072
G1 X195.357 Y52.326 E24.70875
G1 X196.158 Y52.781 E24.73939
G1 X196.586 Y53.064 E24.75646
G1 X196.8 Y53.213 E24.76513
G1 X197.532 Y53.771 E24.79574
G1 X197.882 Y54.077 E24.81121
G1 X198.062 Y54.241 E24.8193
G1 X198.715 Y54.89 E24.84993
G1 X199.216 Y55.473 E24.87549
G1 X199.384 Y55.684 E24.88446
G1 X199.925 Y56.429 E24.91509
G1 X200.256 Y56.961 E24.93593
G1 X200.299 Y57.035 E24.93877
G1 X200.553 Y57.498 E24.95634
G1 X200.664 Y57.713 E24.96438
G1 X201.05 Y58.549 E24.99501
G1 X201.338 Y59.337 E25.02292
G1 X201.407 Y59.552 E25.03043
G1 X201.65 Y60.44 E25.06105
G1 X201.775 Y61.08 E25.08274
G1 X201.819 Y61.349 E25.0918
G1 X201.928 Y62.263 E25.12242
G1 X201.956 Y62.833 E25.1414
G1 X201.982 Y64.046 E25.18175
G1 X201.984 Y64.273 E25.1893
G1 X201.983 Y171.18 E28.74504
G1 X201.976 Y171.726 E28.7632
G1 X201.945 Y172.41 E28.78598
G1 X201.903 Y172.951 E28.80403
G1 X201.792 Y173.865 E28.83465
G1 X201.508 Y175.111 E28.87715
G1 X201.45 Y175.309 E28.88402
G1 X201.273 Y175.857 E28.90317
G1 X201.243 Y175.942 E28.90617
G1 X200.899 Y176.796 E28.93679
G1 X200.684 Y177.242 E28.95326
G1 X200.574 Y177.457 E28.96129
G1 X200.119 Y178.258 E28.99193
G1 X199.803 Y178.733 E29.0109
G1 X199.641 Y178.963 E29.02026
G1 X199.079 Y179.692 E29.05088
G1 X198.773 Y180.039 E29.06626
G1 X198.622 Y180.203 E29.07368
G1 X197.97 Y180.852 E29.10428
G1 X197.441 Y181.304 E29.12742
G1 X197.232 Y181.471 E29.13632
G1 X196.488 Y182.014 E29.16695
G1 X195.949 Y182.35 E29.18808
G1 X195.87 Y182.396 E29.19112
G1 X195.364 Y182.673 E29.2103
G1 X195.149 Y182.783 E29.21834
G1 X194.312 Y183.166 E29.24895
G1 X193.559 Y183.439 E29.27559
G1 X193.347 Y183.507 E29.283
G1 X192.458 Y183.75 E29.31365
G1 X191.808 Y183.877 E29.33568
G1 X191.537 Y183.921 E29.34481
G1 X190.622 Y184.029 E29.37545
G1 X190.062 Y184.056 E29.3941
G1 X188.833 Y184.082 E29.43499
G1 X188.609 Y184.084 E29.44244
G1 X67.904 Y184.083 E33.4571
G1 X66.52 Y184.064 E33.50314
G1 X63.755 Y184.083 E33.5951
G1 X63.599 Y184.077 E33.6003
G1 X62.704 Y184.084 E33.63007
G1 X45.97 Y184.083 E34.18664
G1 X45.272 Y184.073 E34.20986
G1 X44.647 Y184.045 E34.23067
G1 X44.511 Y184.035 E34.2352
G1 X44.112 Y183.999 E34.24853
G1 X43.888 Y183.974 E34.25602
G1 X42.979 Y183.832 E34.28662
G1 X41.958 Y183.574 E34.32165
G1 X41.635 Y183.475 E34.33289
G1 X40.767 Y183.167 E34.36352
G1 X40.237 Y182.936 E34.38275
G1 X40.139 Y182.89 E34.38635
G1 X39.571 Y182.602 E34.40753
G1 X39.382 Y182.499 E34.41469
G1 X38.593 Y182.023 E34.44534
G1 X37.852 Y181.484 E34.47582
G1 X37.548 Y181.242 E34.48874
G1 X36.853 Y180.638 E34.51936
G1 X36.241 Y180.006 E34.54862
G1 X36.183 Y179.941 E34.55152
G1 X35.799 Y179.486 E34.57132
G1 X35.639 Y179.285 E34.57987
G1 X35.097 Y178.54 E34.61051
G1 X34.652 Y177.806 E34.63906
G1 X34.546 Y177.614 E34.64636
G1 X34.126 Y176.766 E34.67783
G1 X34.033 Y176.555 E34.6855
G1 X33.564 Y175.271 E34.73097
G1 X33.499 Y175.05 E34.73863
G1 X33.278 Y174.156 E34.76926
G1 X33.135 Y173.245 E34.79993
G1 X33.093 Y172.872 E34.81241
G1 X33.03 Y171.976 E34.84229
G1 X33.02 Y171.611 E34.85443
G1 X33.016 Y171.321 E34.86408
G1 X33.017 Y63.835 E38.43908
G1 X33.027 Y63.166 E38.46133
G1 X33.055 Y62.547 E38.48194
G1 X33.065 Y62.411 E38.48647
G1 X33.097 Y62.049 E38.49856
G1 X33.121 Y61.827 E38.50599
G1 X33.26 Y60.917 E38.53661
G1 X33.525 Y59.862 E38.57279
G1 X33.627 Y59.529 E38.58437
G1 X33.934 Y58.661 E38.61499
G1 X34.239 Y57.977 E38.6399
G1 X34.283 Y57.887 E38.64323
G1 X34.491 Y57.485 E38.65829
G1 X34.592 Y57.299 E38.66533
G1 X35.066 Y56.509 E38.69597
G1 X35.609 Y55.762 E38.72668
G1 X35.853 Y55.455 E38.73973
G1 X36.456 Y54.759 E38.77036
G1 X37.094 Y54.141 E38.7999
G1 X37.159 Y54.083 E38.8028
G1 X37.614 Y53.699 E38.8226
G1 X37.815 Y53.539 E38.83114
G1 X38.56 Y52.997 E38.86179
G0 F6000 X38.795 Y53.321
G1 F1200 X39.48 Y52.906 E38.88843
G1 X39.659 Y52.807 E38.89523
G1 X40.438 Y52.419 E38.92417
G1 X40.662 Y52.319 E38.93233
G1 X41.502 Y51.988 E38.96236
G1 X41.942 Y51.847 E38.97773
G1 X42.163 Y51.782 E38.98539
G1 X43.04 Y51.566 E39.01543
G1 X43.87 Y51.435 E39.04338
G1 X44.216 Y51.395 E39.05496
G1 X45.075 Y51.333 E39.08361
G1 X45.467 Y51.321 E39.09665
G1 X45.779 Y51.316 E39.10703
G1 X62.287 Y51.316 E39.65609
G1 X64.257 Y51.343 E39.72162
G1 X67.577 Y51.331 E39.83204
G1 X68.212 Y51.318 E39.85317
G1 X68.426 Y51.316 E39.86029
G1 X189.105 Y51.317 E43.87409
G1 X189.627 Y51.324 E43.89145
G1 X190.279 Y51.354 E43.91316
G1 X190.82 Y51.396 E43.93121
G1 X191.717 Y51.505 E43.96126
G1 X192.983 Y51.801 E44.0045
G1 X193.198 Y51.866 E44.01197
G1 X193.582 Y51.991 E44.0254
G1 X194.424 Y52.318 E44.05545
G1 X194.96 Y52.572 E44.07518
G1 X195.175 Y52.682 E44.08321
G1 X195.96 Y53.129 E44.11325
G1 X196.357 Y53.392 E44.12909
G1 X196.571 Y53.541 E44.13777
G1 X197.613 Y54.372 E44.18209
G1 X197.793 Y54.536 E44.19019
G1 X198.433 Y55.173 E44.22023
G1 X198.903 Y55.723 E44.24429
G1 X199.071 Y55.934 E44.25326
G1 X199.601 Y56.664 E44.28326
G1 X199.91 Y57.162 E44.30276
G1 X199.953 Y57.236 E44.3056
G1 X200.197 Y57.682 E44.32251
G1 X200.308 Y57.897 E44.33056
G1 X200.687 Y58.717 E44.36061
G1 X200.957 Y59.459 E44.38687
G1 X201.026 Y59.674 E44.39438
G1 X201.264 Y60.545 E44.42441
G1 X201.38 Y61.144 E44.4447
G1 X201.424 Y61.413 E44.45377
G1 X201.53 Y62.31 E44.48381
G1 X201.556 Y62.841 E44.50149
G1 X201.582 Y64.054 E44.54185
G1 X201.584 Y64.273 E44.54913
G1 X201.583 Y171.175 E48.10471
G1 X201.576 Y171.721 E48.12287
G1 X201.546 Y172.379 E48.14477
G1 X201.504 Y172.92 E48.16282
G1 X201.395 Y173.817 E48.19288
G1 X201.124 Y174.998 E48.23318
G1 X201.066 Y175.196 E48.24004
G1 X200.896 Y175.724 E48.25849
G1 X200.866 Y175.809 E48.26149
G1 X200.528 Y176.646 E48.29151
G1 X200.328 Y177.06 E48.3068
G1 X200.218 Y177.275 E48.31483
G1 X199.771 Y178.06 E48.34488
G1 X199.476 Y178.503 E48.36258
G1 X199.314 Y178.733 E48.37194
G1 X198.479 Y179.768 E48.41617
G1 X198.328 Y179.932 E48.42358
G1 X197.687 Y180.569 E48.45364
G1 X197.191 Y180.992 E48.47532
G1 X196.982 Y181.159 E48.48422
G1 X196.252 Y181.691 E48.51426
G1 X195.748 Y182.005 E48.53401
G1 X195.669 Y182.051 E48.53705
G1 X195.182 Y182.317 E48.55551
G1 X194.967 Y182.427 E48.56354
G1 X194.145 Y182.802 E48.59359
G1 X193.436 Y183.059 E48.61868
G1 X193.224 Y183.127 E48.62608
G1 X192.353 Y183.364 E48.6561
G1 X191.744 Y183.482 E48.67674
G1 X191.473 Y183.526 E48.68587
G1 X190.576 Y183.631 E48.71591
G1 X190.054 Y183.656 E48.73329
G1 X188.825 Y183.682 E48.77417
G1 X188.609 Y183.684 E48.78136
G1 X67.91 Y183.683 E52.79582
G1 X66.523 Y183.664 E52.84196
G1 X63.752 Y183.683 E52.93413
G1 X63.598 Y183.677 E52.93925
G1 X62.701 Y183.684 E52.96909
G1 X45.976 Y183.683 E53.52536
G1 X45.278 Y183.673 E53.54858
G1 X44.676 Y183.647 E53.56862
G1 X44.54 Y183.637 E53.57316
G1 X44.157 Y183.601 E53.58595
G1 X43.933 Y183.576 E53.59345
G1 X43.04 Y183.436 E53.62351
G1 X42.075 Y183.191 E53.65663
G1 X41.752 Y183.092 E53.66786
G1 X40.901 Y182.79 E53.6979
G1 X40.407 Y182.573 E53.71584
G1 X40.309 Y182.527 E53.71944
G1 X39.762 Y182.25 E53.73984
G1 X39.573 Y182.147 E53.747
G1 X38.8 Y181.681 E53.77702
G1 X38.101 Y181.171 E53.8058
G1 X37.797 Y180.929 E53.81872
G1 X37.116 Y180.336 E53.84875
G1 X36.539 Y179.74 E53.87634
G1 X36.481 Y179.675 E53.87924
G1 X36.112 Y179.237 E53.89829
G1 X35.952 Y179.036 E53.90683
G1 X35.421 Y178.305 E53.93689
G1 X35.002 Y177.613 E53.96379
G1 X34.896 Y177.421 E53.97109
G1 X34.492 Y176.605 E54.00137
G1 X34.399 Y176.394 E54.00904
G1 X33.947 Y175.158 E54.05281
G1 X33.882 Y174.937 E54.06047
G1 X33.666 Y174.06 E54.09051
G1 X33.532 Y173.2 E54.11946
G1 X33.49 Y172.827 E54.13195
G1 X33.43 Y171.965 E54.16069
G1 X33.42 Y171.6 E54.17283
G1 X33.416 Y171.321 E54.18211
G1 X33.417 Y63.841 E57.75691
G1 X33.427 Y63.172 E57.77917
G1 X33.453 Y62.576 E57.79901
G1 X33.463 Y62.44 E57.80354
G1 X33.495 Y62.092 E57.81517
G1 X33.519 Y61.87 E57.82259
G1 X33.656 Y60.977 E57.85264
G1 X33.907 Y59.979 E57.88687
G1 X34.009 Y59.646 E57.89845
G1 X34.312 Y58.795 E57.9285
G1 X34.598 Y58.153 E57.95187
G1 X34.642 Y58.063 E57.95521
G1 X34.842 Y57.676 E57.96969
G1 X34.943 Y57.49 E57.97673
G1 X35.409 Y56.716 E58.00678
G1 X35.922 Y56.011 E58.03578
G1 X36.166 Y55.704 E58.04883
G1 X36.759 Y55.022 E58.07888
G1 X37.36 Y54.439 E58.10673
G1 X37.425 Y54.381 E58.10963
G1 X37.863 Y54.012 E58.12868
G1 X38.064 Y53.852 E58.13722
G1 X38.795 Y53.321 E58.16728
G1 F1500 E51.66728
;MESH:Module_B_Case.stl
G0 F6000 X71.049 Y64.514
G0 X70.527 Y63.14
G0 X69.961 Y64.382
G0 X69.924 Y64.862
G0 X69.998 Y65.179
G0 X70.261 Y65.588
G0 X80.146 Y75.474
G0 X80.512 Y75.717
G0 X80.899 Y75.798
G0 X114.921 Y75.918
;TYPE:WALL-INNER
G1 F1500 E58.16728
G1 F1200 X115.291 Y75.681 E58.18189
G1 X125.218 Y65.752 E58.64887
G1 X125.447 Y65.399 E58.66287
G1 X125.505 Y65.31 E58.6664
G1 X125.615 Y64.916 E58.68001
G1 X125.575 Y64.353 E58.69878
G1 X125.43 Y63.974 E58.71228
G1 X125.059 Y63.544 E58.73116
G1 X124.714 Y63.327 E58.74472
G1 X124.216 Y63.217 E58.76168
G1 X124.131 Y63.209 E58.76452
G1 X71.11 Y63.209 E60.52801
G1 X70.597 Y63.319 E60.54546
G1 X70.24 Y63.519 E60.55907
G1 X69.868 Y63.947 E60.57793
G1 X69.703 Y64.317 E60.5914
G1 X69.661 Y64.882 E60.61025
G1 X69.753 Y65.282 E60.6239
G1 X69.827 Y65.397 E60.62845
G1 X70.057 Y65.753 E60.64254
G1 X79.98 Y75.677 E61.10932
G1 X80.343 Y75.919 E61.12383
G1 X80.408 Y75.962 E61.12642
G1 X80.892 Y76.067 E61.14289
G1 X80.973 Y76.078 E61.14561
G1 X114.322 Y76.078 E62.2548
G1 X114.825 Y75.98 E62.27185
G1 X114.921 Y75.918 E62.27565
G0 F6000 X114.674 Y75.602
;TYPE:WALL-OUTER
G1 F1200 X115.039 Y75.368 E62.29007
G1 X124.905 Y65.499 E62.7542
G1 X125.136 Y65.143 E62.76832
G1 X125.211 Y64.875 E62.77758
G1 X125.18 Y64.441 E62.79205
G1 X125.081 Y64.182 E62.80127
G1 X124.795 Y63.851 E62.81582
G1 X124.56 Y63.703 E62.82506
G1 X124.153 Y63.613 E62.83892
G1 X124.112 Y63.609 E62.84029
G1 X71.152 Y63.609 E64.60175
G1 X70.74 Y63.697 E64.61576
