;FLAVOR:Marlin
;TIME:14350
;Filament used: 13.5261m
;Layer height: 0.25
;MINX:12.89
;MINY:30.716
;MINZ:0.2
;MAXX:215.796
;MAXY:204.134
;MAXZ:17.45
;Generated with Cura_SteamEngine 4.8.0
M140 S60
M105
M190 S60
M104 S200
M105
M109 S200
M82 ;absolute extrusion mode
M201 X500.00 Y500.00 Z100.00 E5000.00 ;Setup machine max acceleration
M203 X500.00 Y500.00 Z10.00 E50.00 ;Setup machine max feedrate
M204 P500.00 R1000.00 T500.00 ;Setup Print/Retract/Travel acceleration
M205 X8.00 Y8.00 Z0.40 E5.00 ;Setup Jerk
M220 S100 ;Reset Feedrate
M221 S100 ;Reset Flowrate

G28 ;Home

G92 E0 ;Reset Extruder
G1 Z2.0 F3000 ;Move Z Axis up
G1 X10.1 Y20 Z0.28 F5000.0 ;Move to start position
G1 X10.1 Y200.0 Z0.28 F1500.0 E15 ;Draw the first line
G1 X10.4 Y200.0 Z0.28 F5000.0 ;Move to side a little
G1 X10.4 Y20 Z0.28 F1500.0 E30 ;Draw the second line
G92 E0 ;Reset Extruder
G1 Z2.0 F3000 ;Move Z Axis up

G92 E0
G92 E0
G1 F1500 E-6.5
;LAYER_COUNT:70
;LAYER:0
M107
G0 F6000 X53.278 Y36.268 Z0.2
;TYPE:SKIRT
G1 F1500 E0
G1 F1200 X53.804 Y35.492 E0.03118
G1 X54.393 Y34.763 E0.06235
G1 X55.043 Y34.086 E0.09357
G1 X55.537 Y33.643 E0.11564
G1 X55.615 Y33.577 E0.11904
G1 X56.092 Y33.195 E0.13936
G1 X56.292 Y33.044 E0.1477
G1 X57.064 Y32.511 E0.1789
G1 X57.878 Y32.046 E0.21008
G1 X58.729 Y31.652 E0.24127
G1 X59.614 Y31.331 E0.27258
G1 X59.687 Y31.308 E0.27513
G1 X60.124 Y31.181 E0.29026
G1 X60.372 Y31.114 E0.29881
G1 X61.287 Y30.908 E0.33
G1 X62.317 Y30.772 E0.36456
G1 X62.4 Y30.765 E0.36733
G1 X63.168 Y30.727 E0.3929
G1 X64.027 Y30.716 E0.42147
G1 X170.978 Y30.716 E3.97868
G1 X171.865 Y30.728 E4.00818
G1 X172.801 Y30.783 E4.03937
G1 X173.532 Y30.881 E4.0639
G1 X173.786 Y30.924 E4.07247
G1 X174.703 Y31.12 E4.10366
G1 X175.6 Y31.393 E4.13484
G1 X176.471 Y31.742 E4.16605
G1 X177.197 Y32.102 E4.193
G1 X177.396 Y32.21 E4.20053
G1 X178.2 Y32.692 E4.23171
G1 X179.032 Y33.298 E4.26595
G1 X179.209 Y33.44 E4.27349
G1 X179.915 Y34.057 E4.30468
G1 X180.566 Y34.733 E4.33589
G1 X181.048 Y35.318 E4.3611
G1 X181.194 Y35.508 E4.36907
G1 X181.903 Y36.548 E4.41094
G1 X182.497 Y37.538 E4.44934
G1 X183.89 Y39.787 E4.53733
G1 X185.271 Y41.884 E4.62084
G1 X186.712 Y43.939 E4.70432
G1 X188.212 Y45.958 E4.78797
G1 X189.784 Y47.951 E4.8724
G1 X191.397 Y49.883 E4.95611
G1 X193.049 Y51.75 E5.03903
G1 X194.785 Y53.604 E5.1235
G1 X196.541 Y55.377 E5.2065
G1 X198.376 Y57.128 E5.29086
G1 X200.239 Y58.806 E5.37425
G1 X202.16 Y60.441 E5.45816
G1 X204.1 Y62.001 E5.54095
G1 X206.136 Y63.543 E5.6259
G1 X208.217 Y65.03 E5.71097
G1 X209.395 Y65.832 E5.75837
G1 X210.191 Y66.365 E5.79023
G1 X211.001 Y66.962 E5.8237
G1 X211.244 Y67.159 E5.8341
G1 X211.947 Y67.78 E5.8653
G1 X212.799 Y68.7 E5.90701
G1 X212.998 Y68.941 E5.9174
G1 X213.564 Y69.689 E5.9486
G1 X214.201 Y70.73 E5.98919
G1 X214.348 Y71.003 E5.9995
G1 X214.757 Y71.847 E6.0307
G1 X215.025 Y72.526 E6.05498
G1 X215.056 Y72.613 E6.05805
G1 X215.25 Y73.213 E6.07902
G1 X215.308 Y73.411 E6.08588
G1 X215.533 Y74.321 E6.11706
G1 X215.678 Y75.228 E6.14761
G1 X215.699 Y75.408 E6.15364
G1 X215.771 Y76.466 E6.18891
G1 X215.794 Y77.63 E6.22763
G1 X215.796 Y77.847 E6.23485
G1 X215.795 Y156.578 E8.85345
G1 X215.788 Y157.119 E8.87145
G1 X215.756 Y157.825 E8.89496
G1 X215.701 Y158.536 E8.91867
G1 X215.589 Y159.468 E8.9499
G1 X215.326 Y160.656 E8.99037
G1 X215.275 Y160.838 E8.99665
G1 X215.176 Y161.172 E9.00824
G1 X215.086 Y161.458 E9.01821
G1 X214.766 Y162.34 E9.04942
G1 X214.399 Y163.14 E9.07869
G1 X214.307 Y163.321 E9.08544
G1 X214.123 Y163.667 E9.09848
G1 X213.974 Y163.936 E9.10871
G1 X213.485 Y164.736 E9.13989
G1 X212.942 Y165.478 E9.17047
G1 X212.774 Y165.688 E9.17942
G1 X212.552 Y165.955 E9.19097
G1 X212.401 Y166.132 E9.19871
G1 X211.763 Y166.819 E9.22989
G1 X211.296 Y167.254 E9.25112
G1 X211.114 Y167.414 E9.25918
G1 X210.567 Y167.865 E9.28276
G1 X210.388 Y168.003 E9.29027
G1 X209.622 Y168.543 E9.32144
G1 X209.074 Y168.873 E9.34272
G1 X208.682 Y169.094 E9.35769
G1 X208.026 Y169.435 E9.38228
G1 X207.98 Y169.457 E9.38397
G1 X207.117 Y169.826 E9.41519
G1 X206.617 Y170.001 E9.43281
G1 X206.19 Y170.139 E9.44774
G1 X205.692 Y170.287 E9.46502
G1 X205.416 Y170.362 E9.47453
G1 X205.124 Y170.437 E9.48456
G1 X202.917 Y170.972 E9.56009
G1 X200.469 Y171.64 E9.64448
G1 X198.074 Y172.366 E9.72772
G1 X195.696 Y173.162 E9.81113
G1 X193.311 Y174.035 E9.8956
G1 X190.988 Y174.961 E9.97878
G1 X188.676 Y175.96 E10.06255
G1 X186.381 Y177.028 E10.14674
G1 X184.128 Y178.157 E10.23055
G1 X181.934 Y179.334 E10.31336
G1 X179.724 Y180.602 E10.39811
G1 X177.596 Y181.903 E10.48107
G1 X175.464 Y183.292 E10.5657
G1 X173.429 Y184.701 E10.64802
G1 X171.366 Y186.217 E10.73317
G1 X169.422 Y187.733 E10.81517
G1 X167.45 Y189.363 E10.90026
G1 X165.565 Y191.012 E10.98356
G1 X163.715 Y192.724 E11.0674
G1 X161.915 Y194.488 E11.15122
G1 X160.157 Y196.311 E11.23545
G1 X158.496 Y198.135 E11.31751
G1 X157.756 Y199 E11.35537
G1 X156.82 Y200.069 E11.40263
G1 X156.173 Y200.748 E11.43382
G1 X155.524 Y201.325 E11.4627
G1 X155.362 Y201.458 E11.46967
G1 X154.612 Y202.021 E11.50087
G1 X153.869 Y202.49 E11.53009
G1 X153.697 Y202.589 E11.53669
G1 X152.865 Y203.021 E11.56787
G1 X151.999 Y203.382 E11.59908
G1 X151.05 Y203.682 E11.63218
G1 X150.818 Y203.744 E11.64017
G1 X149.902 Y203.947 E11.67137
G1 X148.973 Y204.072 E11.70255
G1 X148.175 Y204.115 E11.72913
G1 X147.031 Y204.134 E11.76718
G1 X87.584 Y204.133 E13.7444
G1 X86.877 Y204.122 E13.76792
G1 X85.941 Y204.067 E13.7991
G1 X85.197 Y203.966 E13.82408
G1 X84.951 Y203.924 E13.83238
G1 X84.034 Y203.727 E13.86357
G1 X83.137 Y203.452 E13.89478
G1 X82.038 Y202.996 E13.93435
G1 X81.961 Y202.959 E13.93719
G1 X81.263 Y202.592 E13.96342
G1 X81.055 Y202.473 E13.97139
G1 X80.261 Y201.973 E14.0026
G1 X79.513 Y201.407 E14.0338
G1 X78.816 Y200.78 E14.06498
G1 X77.927 Y199.797 E14.10906
G1 X77.727 Y199.547 E14.11971
G1 X77.173 Y198.79 E14.15091
G1 X76.686 Y197.989 E14.18209
G1 X76.268 Y197.149 E14.2133
G1 X75.951 Y196.355 E14.24173
G1 X75.554 Y195.235 E14.28125
G1 X74.64 Y192.779 E14.36841
G1 X73.697 Y190.446 E14.45211
G1 X72.686 Y188.137 E14.53595
G1 X71.628 Y185.892 E14.61849
G1 X70.473 Y183.614 E14.70344
G1 X69.282 Y181.418 E14.78653
G1 X68.009 Y179.225 E14.87087
G1 X66.689 Y177.091 E14.95433
G1 X65.294 Y174.971 E15.03873
G1 X63.868 Y172.935 E15.12141
G1 X62.373 Y170.92 E15.20486
G1 X60.812 Y168.938 E15.28877
G1 X59.186 Y166.989 E15.37319
G1 X57.512 Y165.094 E15.45729
G1 X55.812 Y163.275 E15.5401
G1 X54.046 Y161.489 E15.62364
G1 X52.208 Y159.735 E15.70814
G1 X50.353 Y158.061 E15.79125
G1 X48.434 Y156.425 E15.87512
G1 X46.48 Y154.852 E15.95855
G1 X44.457 Y153.318 E16.04299
G1 X42.435 Y151.872 E16.12567
G1 X40.319 Y150.447 E16.21052
G1 X38.215 Y149.114 E16.29336
G1 X36.029 Y147.816 E16.37792
G1 X33.833 Y146.594 E16.46151
G1 X31.618 Y145.441 E16.54456
G1 X29.319 Y144.328 E16.62952
G1 X27.056 Y143.309 E16.71206
G1 X24.696 Y142.325 E16.79711
G1 X22.384 Y141.439 E16.87946
G1 X20.216 Y140.673 E16.95593
G1 X19.346 Y140.323 E16.98712
G1 X18.509 Y139.9 E17.01832
G1 X17.711 Y139.407 E17.04951
G1 X16.957 Y138.848 E17.08073
G1 X16.255 Y138.227 E17.11191
G1 X15.607 Y137.549 E17.1431
G1 X15.02 Y136.817 E17.17431
G1 X14.497 Y136.039 E17.20549
G1 X14.043 Y135.218 E17.23669
G1 X13.66 Y134.362 E17.26788
G1 X13.351 Y133.476 E17.29909
G1 X13.119 Y132.568 E17.33026
G1 X12.965 Y131.643 E17.36145
G1 X12.89 Y130.708 E17.39265
G1 X12.902 Y129.661 E17.42747
G1 X12.924 Y129.284 E17.44003
G1 X12.947 Y128.966 E17.45064
G1 X17.587 Y75.952 E19.22063
G1 X17.66 Y75.237 E19.24454
G1 X17.795 Y74.309 E19.27573
G1 X18.008 Y73.395 E19.30694
G1 X18.299 Y72.504 E19.33812
G1 X18.664 Y71.64 E19.36931
G1 X19.102 Y70.81 E19.40053
G1 X19.609 Y70.021 E19.43172
G1 X20.181 Y69.278 E19.46291
G1 X20.814 Y68.586 E19.4941
G1 X21.504 Y67.951 E19.52529
G1 X22.246 Y67.377 E19.55649
G1 X22.705 Y67.069 E19.57487
G1 X23.669 Y66.458 E19.61283
G1 X24.337 Y66.049 E19.63889
G1 X26.425 Y64.685 E19.72184
G1 X28.497 Y63.247 E19.80572
G1 X30.531 Y61.748 E19.88976
G1 X32.52 Y60.193 E19.97373
G1 X34.447 Y58.597 E20.05695
G1 X36.346 Y56.931 E20.14098
G1 X38.177 Y55.233 E20.22403
G1 X39.968 Y53.474 E20.30753
G1 X41.73 Y51.642 E20.39207
G1 X43.443 Y49.757 E20.47678
G1 X45.051 Y47.884 E20.55889
G1 X46.641 Y45.923 E20.64286
G1 X48.184 Y43.905 E20.72735
G1 X49.641 Y41.884 E20.81021
G1 X51.058 Y39.795 E20.89417
G1 X52.442 Y37.627 E20.97972
G1 X53.278 Y36.268 E21.03279
G0 F6000 X53.618 Y36.478
G1 F1200 X54.135 Y35.716 E21.06341
G1 X54.716 Y35.002 E21.09403
G1 X55.356 Y34.341 E21.12463
G1 X55.795 Y33.948 E21.14423
G1 X55.873 Y33.882 E21.14763
G1 X56.333 Y33.514 E21.16722
G1 X56.533 Y33.363 E21.17556
G1 X57.291 Y32.841 E21.20617
G1 X58.092 Y32.386 E21.23681
G1 X58.929 Y32.003 E21.26742
G1 X59.735 Y31.713 E21.29591
G1 X60.228 Y31.567 E21.31301
G1 X60.476 Y31.5 E21.32156
G1 X61.375 Y31.299 E21.3522
G1 X62.35 Y31.17 E21.38491
G1 X62.433 Y31.163 E21.38768
G1 X63.173 Y31.127 E21.41232
G1 X64.027 Y31.116 E21.44073
G1 X170.978 Y31.116 E24.99793
G1 X171.858 Y31.128 E25.0272
G1 X172.777 Y31.182 E25.05782
G1 X173.465 Y31.276 E25.08092
G1 X173.719 Y31.319 E25.08948
G1 X174.62 Y31.512 E25.12013
G1 X175.5 Y31.782 E25.15075
G1 X176.353 Y32.128 E25.18136
G1 X177.006 Y32.454 E25.20564
G1 X177.205 Y32.562 E25.21317
G1 X177.994 Y33.035 E25.24377
G1 X178.782 Y33.61 E25.27621
G1 X178.959 Y33.752 E25.28376
G1 X179.652 Y34.359 E25.3144
G1 X180.289 Y35.023 E25.345
G1 X180.731 Y35.561 E25.36816
G1 X180.877 Y35.751 E25.37613
G1 X181.56 Y36.754 E25.41649
G1 X182.147 Y37.732 E25.45443
G1 X183.559 Y40.011 E25.5436
G1 X184.937 Y42.104 E25.62694
G1 X186.396 Y44.185 E25.71148
G1 X187.893 Y46.199 E25.79494
G1 X189.465 Y48.193 E25.87939
G1 X191.089 Y50.138 E25.96367
G1 X192.759 Y52.024 E26.04745
G1 X194.509 Y53.894 E26.13264
G1 X196.245 Y55.647 E26.21469
G1 X198.115 Y57.431 E26.30065
G1 X199.957 Y59.091 E26.38313
G1 X201.917 Y60.759 E26.46873
G1 X203.871 Y62.33 E26.55212
G1 X205.907 Y63.872 E26.63707
G1 X207.94 Y65.325 E26.72018
G1 X209.209 Y66.189 E26.77124
G1 X209.968 Y66.697 E26.80162
G1 X210.749 Y67.273 E26.83389
G1 X210.992 Y67.47 E26.8443
G1 X211.682 Y68.08 E26.87493
G1 X212.491 Y68.955 E26.91456
G1 X212.69 Y69.196 E26.92496
G1 X213.244 Y69.931 E26.95557
G1 X213.849 Y70.92 E26.99413
G1 X213.996 Y71.193 E27.00445
G1 X214.397 Y72.021 E27.03505
G1 X214.648 Y72.66 E27.05788
G1 X214.679 Y72.747 E27.06095
G1 X214.867 Y73.325 E27.08117
G1 X214.925 Y73.523 E27.08803
G1 X215.145 Y74.417 E27.11865
G1 X215.281 Y75.275 E27.14754
G1 X215.302 Y75.455 E27.15357
G1 X215.371 Y76.474 E27.18754
G1 X215.394 Y77.638 E27.22626
G1 X215.396 Y77.847 E27.23322
G1 X215.395 Y156.573 E29.85165
G1 X215.388 Y157.114 E29.86965
G1 X215.357 Y157.795 E29.89232
G1 X215.302 Y158.506 E29.91604
G1 X215.192 Y159.419 E29.94663
G1 X214.941 Y160.548 E29.98509
G1 X214.89 Y160.73 E29.99138
G1 X214.794 Y161.052 E30.00256
G1 X214.704 Y161.338 E30.01253
G1 X214.39 Y162.203 E30.04314
G1 X214.042 Y162.959 E30.07082
G1 X213.95 Y163.14 E30.07757
G1 X213.774 Y163.473 E30.0901
G1 X213.625 Y163.742 E30.10032
G1 X213.144 Y164.527 E30.13094
G1 X212.629 Y165.228 E30.15988
G1 X212.461 Y165.438 E30.16882
G1 X212.248 Y165.696 E30.17995
G1 X212.097 Y165.873 E30.18769
G1 X211.47 Y166.546 E30.21828
G1 X211.032 Y166.954 E30.23819
G1 X210.85 Y167.114 E30.24625
G1 X210.323 Y167.548 E30.26896
G1 X210.144 Y167.686 E30.27647
G1 X209.391 Y168.216 E30.3071
G1 X208.878 Y168.525 E30.32702
G1 X208.486 Y168.746 E30.34199
G1 X207.853 Y169.075 E30.36571
G1 X207.807 Y169.097 E30.36741
G1 X206.96 Y169.457 E30.39802
G1 X206.494 Y169.62 E30.41444
G1 X206.067 Y169.758 E30.42936
G1 X205.587 Y169.901 E30.44602
G1 X205.311 Y169.976 E30.45554
G1 X205.03 Y170.048 E30.46518
G1 X202.824 Y170.583 E30.54068
G1 X200.354 Y171.257 E30.62584
G1 X197.969 Y171.98 E30.70873
G1 X195.537 Y172.794 E30.79403
G1 X193.174 Y173.659 E30.87772
G1 X190.848 Y174.586 E30.961
G1 X188.497 Y175.602 E31.04619
G1 X186.211 Y176.665 E31.13004
G1 X183.967 Y177.79 E31.21353
G1 X181.725 Y178.993 E31.29815
G1 X179.522 Y180.256 E31.38261
G1 X177.391 Y181.56 E31.46571
G1 X175.264 Y182.945 E31.55013
G1 X173.164 Y184.399 E31.63508
G1 X171.135 Y185.89 E31.71883
G1 X169.145 Y187.442 E31.80276
G1 X167.215 Y189.037 E31.88604
G1 X165.275 Y190.734 E31.97177
G1 X163.446 Y192.427 E32.05466
G1 X161.63 Y194.207 E32.13924
G1 X159.891 Y196.011 E32.22258
G1 X158.193 Y197.874 E32.30642
G1 X157.455 Y198.737 E32.34419
G1 X156.519 Y199.806 E32.39144
G1 X155.883 Y200.471 E32.42205
G1 X155.27 Y201.016 E32.44933
G1 X155.108 Y201.149 E32.4563
G1 X154.372 Y201.701 E32.4869
G1 X153.67 Y202.143 E32.51449
G1 X153.498 Y202.242 E32.52109
G1 X152.681 Y202.666 E32.55171
G1 X151.83 Y203.018 E32.58234
G1 X150.947 Y203.296 E32.61313
G1 X150.715 Y203.358 E32.62111
G1 X149.816 Y203.556 E32.65173
G1 X148.903 Y203.677 E32.68236
G1 X148.168 Y203.715 E32.70684
G1 X147.031 Y203.734 E32.74467
G1 X87.59 Y203.733 E34.72168
G1 X86.883 Y203.722 E34.7452
G1 X85.964 Y203.667 E34.77582
G1 X85.264 Y203.572 E34.79932
G1 X85.018 Y203.53 E34.80762
G1 X84.118 Y203.336 E34.83824
G1 X83.238 Y203.064 E34.86887
G1 X82.211 Y202.635 E34.90589
G1 X82.134 Y202.598 E34.90873
G1 X81.461 Y202.245 E34.93401
G1 X81.253 Y202.126 E34.94198
G1 X80.475 Y201.634 E34.9726
G1 X79.742 Y201.077 E35.00322
G1 X79.06 Y200.458 E35.03385
G1 X78.24 Y199.547 E35.07462
G1 X78.04 Y199.297 E35.08526
G1 X77.496 Y198.554 E35.11589
G1 X77.02 Y197.766 E35.14651
G1 X76.613 Y196.94 E35.17714
G1 X76.328 Y196.221 E35.20286
G1 X75.926 Y195.088 E35.24285
G1 X75.014 Y192.638 E35.3298
G1 X74.075 Y190.315 E35.41313
G1 X73.056 Y187.986 E35.49769
G1 X71.969 Y185.678 E35.58254
G1 X70.838 Y183.45 E35.66564
G1 X69.621 Y181.206 E35.75055
G1 X68.353 Y179.019 E35.83463
G1 X67.037 Y176.892 E35.91782
G1 X65.639 Y174.768 E36.00239
G1 X64.184 Y172.69 E36.08677
G1 X62.677 Y170.658 E36.17091
G1 X61.105 Y168.662 E36.25541
G1 X59.51 Y166.751 E36.3382
G1 X57.821 Y164.839 E36.42306
G1 X56.106 Y163.004 E36.50659
G1 X54.323 Y161.201 E36.59093
G1 X52.486 Y159.448 E36.67539
G1 X50.599 Y157.745 E36.75993
G1 X48.678 Y156.108 E36.84387
G1 X46.727 Y154.537 E36.92719
G1 X44.709 Y153.007 E37.01142
G1 X42.646 Y151.531 E37.09579
G1 X40.551 Y150.12 E37.1798
G1 X38.412 Y148.766 E37.26399
G1 X36.237 Y147.473 E37.34815
G1 X34.032 Y146.247 E37.43207
G1 X31.784 Y145.077 E37.51636
G1 X29.522 Y143.982 E37.59994
G1 X27.194 Y142.934 E37.68485
G1 X24.856 Y141.958 E37.76912
G1 X22.511 Y141.06 E37.85264
G1 X20.349 Y140.296 E37.92891
G1 X19.495 Y139.951 E37.95954
G1 X18.675 Y139.534 E37.99014
G1 X17.893 Y139.047 E38.02078
G1 X17.157 Y138.495 E38.05138
G1 X16.471 Y137.88 E38.08202
G1 X15.842 Y137.208 E38.11263
G1 X15.273 Y136.485 E38.14324
G1 X14.769 Y135.714 E38.17387
G1 X14.334 Y134.903 E38.20448
G1 X13.97 Y134.057 E38.23511
G1 X13.682 Y133.183 E38.26572
G1 X13.47 Y132.287 E38.29634
G1 X13.338 Y131.376 E38.32696
G1 X13.284 Y130.456 E38.35761
G1 X13.301 Y129.684 E38.3833
G1 X13.323 Y129.307 E38.39586
G1 X13.345 Y129.001 E38.40606
G1 X17.97 Y76.145 E40.17077
G1 X18.058 Y75.277 E40.19979
G1 X18.191 Y74.366 E40.23041
G1 X18.403 Y73.47 E40.26104
G1 X18.691 Y72.596 E40.29164
G1 X19.055 Y71.75 E40.32228
G1 X19.49 Y70.939 E40.35289
G1 X19.995 Y70.169 E40.38351
G1 X20.564 Y69.445 E40.41414
G1 X21.194 Y68.774 E40.44475
G1 X21.879 Y68.159 E40.47537
G1 X22.92 Y67.406 E40.5181
G1 X23.878 Y66.799 E40.55582
G1 X24.543 Y66.392 E40.58176
G1 X26.666 Y65.005 E40.6661
G1 X28.734 Y63.57 E40.74982
G1 X30.77 Y62.069 E40.83395
G1 X32.759 Y60.514 E40.91792
G1 X34.721 Y58.89 E41.00263
G1 X36.599 Y57.242 E41.08574
G1 X38.464 Y55.512 E41.17034
G1 X40.272 Y53.736 E41.25464
G1 X41.998 Y51.942 E41.33744
G1 X43.721 Y50.046 E41.42265
G1 X45.367 Y48.129 E41.50669
G1 X46.967 Y46.155 E41.5912
G1 X48.498 Y44.153 E41.67503
G1 X49.975 Y42.103 E41.75906
G1 X51.399 Y40.005 E41.8434
G1 X52.778 Y37.845 E41.92863
G1 X52.887 Y37.664 E41.93566
G1 X53.618 Y36.478 E41.982
G0 F6000 X53.959 Y36.688
G1 F1200 X54.466 Y35.941 E42.01203
G1 X55.038 Y35.242 E42.04207
G1 X55.669 Y34.596 E42.0721
G1 X56.053 Y34.253 E42.08923
G1 X56.131 Y34.187 E42.09263
G1 X56.574 Y33.834 E42.11147
G1 X56.774 Y33.683 E42.1198
G1 X57.518 Y33.171 E42.14984
